; generated by Slic3r 1.0.0RC2 on 2014-05-13 at 09:11:09

; layer_height = 0.5
; perimeters = 3
; top_solid_layers = 2
; bottom_solid_layers = 3
; fill_density = 0.25
; perimeter_speed = 35
; infill_speed = 70
; travel_speed = 180
; nozzle_diameter = 0.5
; filament_diameter = 3
; extrusion_multiplier = 1.04
; perimeters extrusion width = 0.50mm
; infill extrusion width = 0.53mm
; solid infill extrusion width = 0.53mm
; top infill extrusion width = 0.53mm
; first layer extrusion width = 0.80mm

G21 ; set units to millimeters
M107
M190 S55 ; wait for bed temperature to be reached
M104 S196 ; set temperature
G28 ; home all axes
G1 Z5 F5000 ; lift nozzle
M109 S196 ; wait for temperature to be reached
G90 ; use absolute coordinates
G92 E0
M82 ; use absolute distances for extrusion
G1 F1800.000 E-1.00000
G92 E0
G1 Z0.000 F10800.000
G1 X68.120 Y68.121 F10800.000
G1 E1.00000 F1800.000
G1 X69.280 Y67.121 E1.06630 F735.000
G1 X70.580 Y66.331 E1.13216
G1 X71.990 Y65.740 E1.19833
G1 X73.480 Y65.380 E1.26470
G1 X75.000 Y65.261 E1.33070
G1 X125.000 Y65.261 E3.49534
G1 X126.520 Y65.380 E3.56135
G1 X128.010 Y65.740 E3.62771
G1 X129.420 Y66.331 E3.69388
G1 X130.720 Y67.121 E3.75974
G1 X131.880 Y68.121 E3.82604
G1 X132.880 Y69.281 E3.89235
G1 X133.670 Y70.581 E3.95820
G1 X134.260 Y71.990 E4.02437
G1 X134.620 Y73.481 E4.09074
G1 X134.740 Y75.001 E4.15675
G1 X134.740 Y124.991 E6.32095
G1 X134.620 Y126.511 E6.38696
G1 X134.260 Y128.000 E6.45332
G1 X133.670 Y129.411 E6.51949
G1 X132.880 Y130.711 E6.58535
G1 X131.880 Y131.870 E6.65165
G1 X130.720 Y132.870 E6.71795
G1 X129.420 Y133.661 E6.78381
G1 X128.010 Y134.250 E6.84998
G1 X126.520 Y134.611 E6.91635
G1 X125.000 Y134.731 E6.98235
G1 X75.000 Y134.731 E9.14699
G1 X73.480 Y134.611 E9.21300
G1 X71.990 Y134.250 E9.27936
G1 X70.580 Y133.661 E9.34553
G1 X69.280 Y132.870 E9.41139
G1 X68.120 Y131.870 E9.47769
G1 X67.120 Y130.711 E9.54400
G1 X66.330 Y129.411 E9.60985
G1 X65.740 Y128.000 E9.67602
G1 X65.380 Y126.511 E9.74239
G1 X65.260 Y124.991 E9.80840
G1 X65.260 Y75.001 E11.97260
G1 X65.380 Y73.481 E12.03861
G1 X65.740 Y71.990 E12.10497
G1 X66.330 Y70.581 E12.17114
G1 X67.120 Y69.281 E12.23700
G1 X68.048 Y68.204 E12.29852
G1 F1800.000 E11.29852
G92 E0
G1 X77.442 Y122.632 F10800.000
G1 E1.00000 F1800.000
G1 X77.367 Y122.558 E1.00460 F1365.000
G1 X77.367 Y121.507 E1.05056
G1 X78.493 Y122.632 E1.12016
G1 X79.544 Y122.632 E1.16612
G1 X77.367 Y120.456 E1.30072
G1 X77.367 Y119.405 E1.34668
G1 X80.595 Y122.632 E1.54628
G1 X81.645 Y122.632 E1.59224
G1 X77.367 Y118.354 E1.85684
G1 X77.367 Y117.303 E1.90280
G1 X82.696 Y122.632 E2.23240
G1 X83.747 Y122.632 E2.27836
G1 X77.367 Y116.252 E2.67296
G1 X77.367 Y115.201 E2.71892
G1 X84.798 Y122.632 E3.17852
G1 X85.849 Y122.632 E3.22449
G1 X77.367 Y114.150 E3.74909
G1 X77.367 Y113.099 E3.79505
G1 X86.900 Y122.632 E4.38465
G1 X87.951 Y122.632 E4.43061
G1 X77.367 Y112.048 E5.08521
G1 X77.367 Y110.997 E5.13118
G1 X89.002 Y122.632 E5.85078
G1 X90.053 Y122.632 E5.89674
G1 X77.367 Y109.947 E6.68135
G1 X77.367 Y108.896 E6.72731
G1 X91.104 Y122.632 E7.57691
G1 X92.155 Y122.632 E7.62287
G1 X77.367 Y107.845 E8.53748
G1 X77.367 Y106.794 E8.58344
G1 X93.206 Y122.632 E9.56305
G1 X94.257 Y122.632 E9.60901
G1 X77.367 Y105.743 E10.65361
G1 X77.367 Y104.692 E10.69958
G1 X95.308 Y122.632 E11.80918
G1 X96.359 Y122.632 E11.85514
G1 X77.367 Y103.641 E13.02975
G1 X77.367 Y102.590 E13.07571
G1 X97.410 Y122.632 E14.31532
G1 X98.461 Y122.632 E14.36128
G1 X77.367 Y101.539 E15.66589
G1 X77.367 Y100.488 E15.71185
G1 X99.511 Y122.632 E17.08146
G1 X100.562 Y122.632 E17.12742
G1 X77.367 Y99.437 E18.56203
G1 X77.367 Y98.386 E18.60799
G1 X101.613 Y122.632 E20.10760
G1 X102.664 Y122.632 E20.15357
G1 X77.367 Y97.335 E21.71818
G1 X77.367 Y96.284 E21.76414
G1 X103.715 Y122.632 E23.39375
G1 X104.766 Y122.632 E23.43971
G1 X77.367 Y95.233 E25.13432
G1 X77.367 Y94.182 E25.18028
G1 X105.817 Y122.632 E26.93990
G1 X106.868 Y122.632 E26.98586
G1 X77.367 Y93.131 E28.81047
G1 X77.367 Y92.081 E28.85643
G1 X107.919 Y122.632 E30.74605
G1 X108.970 Y122.632 E30.79201
G1 X77.367 Y91.030 E32.74662
G1 X77.367 Y89.979 E32.79258
G1 X110.021 Y122.632 E34.81220
G1 X111.072 Y122.632 E34.85816
G1 X77.367 Y88.928 E36.94278
G1 X77.367 Y87.877 E36.98874
G1 X112.123 Y122.632 E39.13835
G1 X113.174 Y122.632 E39.18431
G1 X77.367 Y86.826 E41.39893
G1 X77.367 Y85.775 E41.44489
G1 X114.225 Y122.632 E43.72451
G1 X115.276 Y122.632 E43.77047
G1 X77.367 Y84.724 E46.11509
G1 X77.367 Y83.673 E46.16105
G1 X116.326 Y122.632 E48.57067
G1 X117.377 Y122.632 E48.61663
G1 X77.367 Y82.622 E51.09125
G1 X77.367 Y81.571 E51.13721
G1 X118.428 Y122.632 E53.67683
G1 X119.479 Y122.632 E53.72279
G1 X77.367 Y80.520 E56.32741
G1 X77.367 Y79.469 E56.37337
G1 X120.530 Y122.632 E59.04299
G1 X121.581 Y122.632 E59.08896
G1 X77.367 Y78.418 E61.82358
G1 X77.405 Y77.405 E61.86793
G1 X122.595 Y122.595 E64.66295
G1 X122.633 Y121.582 E64.70731
G1 X78.419 Y77.368 E67.44193
G1 X79.470 Y77.368 E67.48789
G1 X122.633 Y120.531 E70.15751
G1 X122.633 Y119.480 E70.20347
G1 X80.521 Y77.368 E72.80808
G1 X81.572 Y77.368 E72.85405
G1 X122.633 Y118.429 E75.39366
G1 X122.633 Y117.378 E75.43962
G1 X82.623 Y77.368 E77.91424
G1 X83.674 Y77.368 E77.96020
G1 X122.633 Y116.327 E80.36982
G1 X122.633 Y115.276 E80.41578
G1 X84.724 Y77.368 E82.76039
G1 X85.775 Y77.368 E82.80635
G1 X122.633 Y114.225 E85.08597
G1 X122.633 Y113.174 E85.13193
G1 X86.826 Y77.368 E87.34654
G1 X87.877 Y77.368 E87.39250
G1 X122.633 Y112.123 E89.54212
G1 X122.633 Y111.072 E89.58808
G1 X88.928 Y77.368 E91.67269
G1 X89.979 Y77.368 E91.71865
G1 X122.633 Y110.021 E93.73826
G1 X122.633 Y108.970 E93.78422
G1 X91.030 Y77.368 E95.73883
G1 X92.081 Y77.368 E95.78480
G1 X122.633 Y107.919 E97.67441
G1 X122.633 Y106.868 E97.72037
G1 X93.132 Y77.368 E99.54498
G1 X94.183 Y77.368 E99.59094
G1 X122.633 Y105.818 E101.35055
G1 X122.633 Y104.767 E101.39651
G1 X95.234 Y77.368 E103.09112
G1 X96.285 Y77.368 E103.13708
G1 X122.633 Y103.716 E104.76669
G1 X122.633 Y102.665 E104.81265
G1 X97.336 Y77.368 E106.37726
G1 X98.387 Y77.368 E106.42322
G1 X122.633 Y101.614 E107.92282
G1 X122.633 Y100.563 E107.96879
G1 X99.438 Y77.368 E109.40339
G1 X100.489 Y77.368 E109.44935
G1 X122.633 Y99.512 E110.81896
G1 X122.633 Y98.461 E110.86492
G1 X101.540 Y77.368 E112.16953
G1 X102.590 Y77.368 E112.21549
G1 X122.633 Y97.410 E113.45509
G1 X122.633 Y96.359 E113.50105
G1 X103.641 Y77.368 E114.67566
G1 X104.692 Y77.368 E114.72162
G1 X122.633 Y95.308 E115.83122
G1 X122.633 Y94.257 E115.87718
G1 X105.743 Y77.368 E116.92179
G1 X106.794 Y77.368 E116.96775
G1 X122.633 Y93.206 E117.94735
G1 X122.633 Y92.155 E117.99331
G1 X107.845 Y77.368 E118.90791
G1 X108.896 Y77.368 E118.95388
G1 X122.633 Y91.104 E119.80348
G1 X122.633 Y90.053 E119.84944
G1 X109.947 Y77.368 E120.63404
G1 X110.998 Y77.368 E120.68000
G1 X122.633 Y89.002 E121.39960
G1 X122.633 Y87.952 E121.44556
G1 X112.049 Y77.368 E122.10016
G1 X113.100 Y77.368 E122.14612
G1 X122.633 Y86.901 E122.73572
G1 X122.633 Y85.850 E122.78168
G1 X114.151 Y77.368 E123.30628
G1 X115.202 Y77.368 E123.35224
G1 X122.633 Y84.799 E123.81184
G1 X122.633 Y83.748 E123.85780
G1 X116.253 Y77.368 E124.25240
G1 X117.304 Y77.368 E124.29836
G1 X122.633 Y82.697 E124.62796
G1 X122.633 Y81.646 E124.67392
G1 X118.355 Y77.368 E124.93851
G1 X119.406 Y77.368 E124.98448
G1 X122.633 Y80.595 E125.18407
G1 X122.633 Y79.544 E125.23003
G1 X120.456 Y77.368 E125.36463
G1 X121.507 Y77.368 E125.41059
G1 X122.633 Y78.493 E125.48018
G1 X122.633 Y77.442 E125.52615
G1 X122.558 Y77.368 E125.53074
G1 F1800.000 E124.53074
G92 E0
G1 X124.600 Y75.401 F10800.000
G1 E1.00000 F1800.000
G1 X124.600 Y124.599 E3.12995 F514.500
G1 X75.400 Y124.599 E5.25995
G1 X75.400 Y75.401 E7.38991
G1 X124.490 Y75.401 E9.51513
G1 X124.232 Y76.038 F10800.000
G1 X123.864 Y76.136 F10800.000
G1 X123.864 Y123.864 E11.58139 F735.000
G1 X76.136 Y123.864 E13.64769
G1 X76.136 Y76.136 E15.71396
G1 X123.754 Y76.136 E17.77548
G1 X123.129 Y76.872 F10800.000
G1 X123.129 Y123.128 E19.77805 F735.000
G1 X76.871 Y123.128 E21.78066
G1 X76.871 Y76.872 E23.78323
G1 X123.018 Y76.872 E25.78106
M104 S190 ; set temperature
M140 S50 ; set bed temperature
G1 F1800.000 E24.78106
G92 E0
G1 Z0.500 F10800.000
G1 X76.591 Y77.380 F10800.000
G1 E1.00000 F1800.000
G1 X77.379 Y76.591 E1.04271 F3900
G1 X78.116 Y76.591 E1.07093
G1 X76.591 Y78.116 E1.15354
G1 X76.591 Y78.853 E1.18175
G1 X78.852 Y76.591 E1.30427
G1 X79.589 Y76.591 E1.33248
G1 X76.591 Y79.589 E1.49490
G1 X76.591 Y80.326 E1.52311
G1 X80.325 Y76.591 E1.72543
G1 X81.062 Y76.591 E1.75364
G1 X76.591 Y81.062 E1.99586
G1 X76.591 Y81.799 E2.02407
G1 X81.798 Y76.591 E2.30619
G1 X82.535 Y76.591 E2.33440
G1 X76.591 Y82.535 E2.65642
G1 X76.591 Y83.271 E2.68463
G1 X83.271 Y76.591 E3.04655
G1 X84.007 Y76.591 E3.07477
G1 X76.591 Y84.008 E3.47659
G1 X76.591 Y84.744 E3.50480
G1 X84.744 Y76.591 E3.94652
G1 X85.480 Y76.591 E3.97473
G1 X76.591 Y85.481 E4.45635
G1 X76.591 Y86.217 E4.48457
G1 X86.217 Y76.591 E5.00609
G1 X86.953 Y76.591 E5.03430
G1 X76.591 Y86.954 E5.59573
G1 X76.591 Y87.690 E5.62394
G1 X87.690 Y76.591 E6.22526
G1 X88.426 Y76.591 E6.25348
G1 X76.591 Y88.427 E6.89470
G1 X76.591 Y89.163 E6.92291
G1 X89.163 Y76.591 E7.60404
G1 X89.899 Y76.591 E7.63225
G1 X76.591 Y89.900 E8.35328
G1 X76.591 Y90.636 E8.38149
G1 X90.636 Y76.591 E9.14241
G1 X91.372 Y76.591 E9.17063
G1 X76.591 Y91.373 E9.97145
G1 X76.591 Y92.109 E9.99967
G1 X92.109 Y76.591 E10.84040
G1 X92.845 Y76.591 E10.86861
G1 X76.591 Y92.846 E11.74924
G1 X76.591 Y93.582 E11.77745
G1 X93.582 Y76.591 E12.69798
G1 X94.318 Y76.591 E12.72619
G1 X76.591 Y94.319 E13.68662
G1 X76.591 Y95.055 E13.71484
G1 X95.054 Y76.591 E14.71517
G1 X95.791 Y76.591 E14.74338
G1 X76.591 Y95.791 E15.78361
G1 X76.591 Y96.528 E15.81182
G1 X96.527 Y76.591 E16.89195
G1 X97.264 Y76.591 E16.92017
G1 X76.591 Y97.264 E18.04020
G1 X76.591 Y98.001 E18.06841
G1 X98.000 Y76.591 E19.22835
G1 X98.737 Y76.591 E19.25656
G1 X76.591 Y98.737 E20.45639
G1 X76.591 Y99.474 E20.48461
G1 X99.473 Y76.591 E21.72434
G1 X100.210 Y76.591 E21.75256
G1 X76.591 Y100.210 E23.03219
G1 X76.591 Y100.947 E23.06040
G1 X100.946 Y76.591 E24.37994
G1 X101.683 Y76.591 E24.40815
G1 X76.591 Y101.683 E25.76759
G1 X76.591 Y102.420 E25.79580
G1 X102.419 Y76.591 E27.19514
G1 X103.156 Y76.591 E27.22335
G1 X76.591 Y103.156 E28.66259
G1 X76.591 Y103.893 E28.69080
G1 X103.892 Y76.591 E30.16994
G1 X104.629 Y76.591 E30.19816
G1 X76.591 Y104.629 E31.71719
G1 X76.591 Y105.366 E31.74541
G1 X105.365 Y76.591 E33.30435
G1 X106.102 Y76.591 E33.33256
G1 X76.591 Y106.102 E34.93140
G1 X76.591 Y106.839 E34.95962
G1 X106.838 Y76.591 E36.59836
G1 X107.574 Y76.591 E36.62657
G1 X76.591 Y107.575 E38.30521
G1 X76.591 Y108.311 E38.33343
G1 X108.311 Y76.591 E40.05197
G1 X109.047 Y76.591 E40.08018
G1 X76.591 Y109.048 E41.83863
G1 X76.591 Y109.784 E41.86684
G1 X109.784 Y76.591 E43.66518
G1 X110.520 Y76.591 E43.69340
G1 X76.591 Y110.521 E45.53164
G1 X76.591 Y111.257 E45.55985
G1 X111.257 Y76.591 E47.43800
G1 X111.993 Y76.591 E47.46621
G1 X76.591 Y111.994 E49.38426
G1 X76.591 Y112.730 E49.41247
G1 X112.730 Y76.591 E51.37042
G1 X113.466 Y76.591 E51.39863
G1 X76.591 Y113.467 E53.39648
G1 X76.591 Y114.203 E53.42469
G1 X114.203 Y76.591 E55.46244
G1 X114.939 Y76.591 E55.49066
G1 X76.591 Y114.940 E57.56830
G1 X76.591 Y115.676 E57.59652
G1 X115.676 Y76.591 E59.71407
G1 X116.412 Y76.591 E59.74228
G1 X76.591 Y116.413 E61.89973
G1 X76.591 Y117.149 E61.92795
G1 X117.149 Y76.591 E64.12530
G1 X117.885 Y76.591 E64.15351
G1 X76.591 Y117.886 E66.39076
G1 X76.591 Y118.622 E66.41897
G1 X118.622 Y76.591 E68.69613
G1 X119.358 Y76.591 E68.72434
G1 X76.591 Y119.358 E71.04139
G1 X76.591 Y120.095 E71.06961
G1 X120.094 Y76.591 E73.42656
G1 X120.831 Y76.591 E73.45477
G1 X76.591 Y120.831 E75.85163
G1 X76.591 Y121.568 E75.87984
G1 X121.567 Y76.591 E78.31660
G1 X122.304 Y76.591 E78.34481
G1 X76.591 Y122.304 E80.82147
G1 X76.591 Y123.041 E80.84968
G1 X123.040 Y76.591 E83.36624
G1 X123.409 Y76.959 E83.38619
G1 X76.959 Y123.409 E85.90275
G1 X77.696 Y123.409 E85.93097
G1 X123.409 Y77.695 E88.40763
G1 X123.409 Y78.432 E88.43584
G1 X78.432 Y123.409 E90.87261
G1 X79.169 Y123.409 E90.90082
G1 X123.409 Y79.168 E93.29768
G1 X123.409 Y79.905 E93.32590
G1 X79.905 Y123.409 E95.68286
G1 X80.642 Y123.409 E95.71108
G1 X123.409 Y80.641 E98.02814
G1 X123.409 Y81.378 E98.05635
G1 X81.378 Y123.409 E100.33351
G1 X82.115 Y123.409 E100.36173
G1 X123.409 Y82.114 E102.59899
G1 X123.409 Y82.851 E102.62720
G1 X82.851 Y123.409 E104.82456
G1 X83.588 Y123.409 E104.85277
G1 X123.409 Y83.587 E107.01023
G1 X123.409 Y84.324 E107.03845
G1 X84.324 Y123.409 E109.15601
G1 X85.061 Y123.409 E109.18422
G1 X123.409 Y85.060 E111.26188
G1 X123.409 Y85.797 E111.29009
G1 X85.797 Y123.409 E113.32785
G1 X86.534 Y123.409 E113.35606
G1 X123.409 Y86.533 E115.35392
G1 X123.409 Y87.270 E115.38213
G1 X87.270 Y123.409 E117.34009
G1 X88.007 Y123.409 E117.36830
G1 X123.409 Y88.006 E119.28636
G1 X123.409 Y88.743 E119.31457
G1 X88.743 Y123.409 E121.19272
G1 X89.479 Y123.409 E121.22094
G1 X123.409 Y89.479 E123.05919
G1 X123.409 Y90.215 E123.08741
G1 X90.216 Y123.409 E124.88576
G1 X90.952 Y123.409 E124.91397
G1 X123.409 Y90.952 E126.67242
G1 X123.409 Y91.688 E126.70064
G1 X91.689 Y123.409 E128.41919
G1 X92.425 Y123.409 E128.44740
G1 X123.409 Y92.425 E130.12605
G1 X123.409 Y93.161 E130.15427
G1 X93.162 Y123.409 E131.79302
G1 X93.898 Y123.409 E131.82123
G1 X123.409 Y93.898 E133.42008
G1 X123.409 Y94.634 E133.44829
G1 X94.635 Y123.409 E135.00724
G1 X95.371 Y123.409 E135.03546
G1 X123.409 Y95.371 E136.55451
G1 X123.409 Y96.107 E136.58272
G1 X96.108 Y123.409 E138.06187
G1 X96.844 Y123.409 E138.09008
G1 X123.409 Y96.844 E139.52933
G1 X123.409 Y97.580 E139.55754
G1 X97.581 Y123.409 E140.95689
G1 X98.317 Y123.409 E140.98510
G1 X123.409 Y98.317 E142.34455
G1 X123.409 Y99.053 E142.37276
G1 X99.054 Y123.409 E143.69230
G1 X99.790 Y123.409 E143.72052
G1 X123.409 Y99.790 E145.00016
G1 X123.409 Y100.526 E145.02838
G1 X100.527 Y123.409 E146.26812
G1 X101.263 Y123.409 E146.29633
G1 X123.409 Y101.262 E147.49617
G1 X123.409 Y101.999 E147.52439
G1 X101.999 Y123.409 E148.68433
G1 X102.736 Y123.409 E148.71254
G1 X123.409 Y102.735 E149.83259
G1 X123.409 Y103.472 E149.86080
G1 X103.472 Y123.409 E150.94094
G1 X104.209 Y123.409 E150.96915
G1 X123.409 Y104.208 E152.00939
G1 X123.409 Y104.945 E152.03761
G1 X104.945 Y123.409 E153.03795
G1 X105.682 Y123.409 E153.06616
G1 X123.409 Y105.681 E154.02660
G1 X123.409 Y106.418 E154.05481
G1 X106.418 Y123.409 E154.97535
G1 X107.155 Y123.409 E155.00356
G1 X123.409 Y107.154 E155.88420
G1 X123.409 Y107.891 E155.91241
G1 X107.891 Y123.409 E156.75315
G1 X108.628 Y123.409 E156.78136
G1 X123.409 Y108.627 E157.58220
G1 X123.409 Y109.364 E157.61041
G1 X109.364 Y123.409 E158.37135
G1 X110.101 Y123.409 E158.39956
G1 X123.409 Y110.100 E159.12060
G1 X123.409 Y110.837 E159.14881
G1 X110.837 Y123.409 E159.82994
G1 X111.574 Y123.409 E159.85816
G1 X123.409 Y111.573 E160.49939
G1 X123.409 Y112.310 E160.52760
G1 X112.310 Y123.409 E161.12894
G1 X113.047 Y123.409 E161.15715
G1 X123.409 Y113.046 E161.71858
G1 X123.409 Y113.782 E161.74680
G1 X113.783 Y123.409 E162.26833
G1 X114.519 Y123.409 E162.29654
G1 X123.409 Y114.519 E162.77817
G1 X123.409 Y115.255 E162.80638
G1 X115.256 Y123.409 E163.24811
G1 X115.992 Y123.409 E163.27633
G1 X123.409 Y115.992 E163.67815
G1 X123.409 Y116.728 E163.70637
G1 X116.729 Y123.409 E164.06830
G1 X117.465 Y123.409 E164.09651
G1 X123.409 Y117.465 E164.41854
G1 X123.409 Y118.201 E164.44675
G1 X118.202 Y123.409 E164.72888
G1 X118.938 Y123.409 E164.75709
G1 X123.409 Y118.938 E164.99932
G1 X123.409 Y119.674 E165.02753
G1 X119.675 Y123.409 E165.22986
G1 X120.411 Y123.409 E165.25807
G1 X123.409 Y120.411 E165.42049
G1 X123.409 Y121.147 E165.44871
G1 X121.148 Y123.409 E165.57123
G1 X121.884 Y123.409 E165.59945
G1 X123.409 Y121.884 E165.68207
G1 X123.409 Y122.620 E165.71028
G1 X122.621 Y123.409 E165.75301
G1 X123.357 Y123.409 E165.78122
G1 X123.409 Y123.357 E165.78404
G1 X124.750 Y124.750 F10800.000
G1 X75.250 Y124.750 E167.60477 F1470
G1 X75.250 Y75.251 E169.42547
G1 X124.750 Y75.251 E171.24620
G1 X124.750 Y124.674 E173.06414
G1 X124.317 Y124.500 F10800.000
G1 X124.250 Y124.250 F10800.000
G1 X75.750 Y124.250 E174.84809 F2100
G1 X75.750 Y75.751 E176.63200
G1 X124.250 Y75.751 E178.41595
G1 X124.250 Y124.174 E180.19711
G1 X123.750 Y123.750 F10800.000
G1 X76.250 Y123.750 E181.94427 F2100
G1 X76.250 Y76.251 E183.69141
G1 X123.750 Y76.251 E185.43857
G1 X123.750 Y123.674 E187.18294
G1 F1800.000 E186.18294
G92 E0
G1 Z1.000 F10800.000
G1 X122.621 Y76.591 F10800.000
G1 E1.00000 F1800.000
G1 X123.409 Y77.380 E1.04271 F3000
G1 X123.409 Y78.116 E1.07093
G1 X121.884 Y76.591 E1.15354
G1 X121.148 Y76.591 E1.18175
G1 X123.409 Y78.853 E1.30427
G1 X123.409 Y79.589 E1.33248
G1 X120.411 Y76.591 E1.49490
G1 X119.675 Y76.591 E1.52311
G1 X123.409 Y80.326 E1.72543
G1 X123.409 Y81.062 E1.75364
G1 X118.938 Y76.591 E1.99586
G1 X118.202 Y76.591 E2.02407
G1 X123.409 Y81.799 E2.30619
G1 X123.409 Y82.535 E2.33440
G1 X117.465 Y76.591 E2.65642
G1 X116.729 Y76.591 E2.68463
G1 X123.409 Y83.271 E3.04655
G1 X123.409 Y84.008 E3.07476
G1 X115.993 Y76.591 E3.47658
G1 X115.256 Y76.591 E3.50480
G1 X123.409 Y84.744 E3.94652
G1 X123.409 Y85.481 E3.97473
G1 X114.520 Y76.591 E4.45635
G1 X113.783 Y76.591 E4.48457
G1 X123.409 Y86.217 E5.00609
G1 X123.409 Y86.954 E5.03430
G1 X113.047 Y76.591 E5.59572
G1 X112.310 Y76.591 E5.62394
G1 X123.409 Y87.690 E6.22526
G1 X123.409 Y88.427 E6.25347
G1 X111.574 Y76.591 E6.89469
G1 X110.837 Y76.591 E6.92291
G1 X123.409 Y89.163 E7.60403
G1 X123.409 Y89.900 E7.63225
G1 X110.101 Y76.591 E8.35327
G1 X109.364 Y76.591 E8.38148
G1 X123.409 Y90.636 E9.14241
G1 X123.409 Y91.373 E9.17062
G1 X108.628 Y76.591 E9.97145
G1 X107.891 Y76.591 E9.99966
G1 X123.409 Y92.109 E10.84039
G1 X123.409 Y92.846 E10.86860
G1 X107.155 Y76.591 E11.74923
G1 X106.418 Y76.591 E11.77744
G1 X123.409 Y93.582 E12.69797
G1 X123.409 Y94.319 E12.72618
G1 X105.682 Y76.591 E13.68661
G1 X104.946 Y76.591 E13.71482
G1 X123.409 Y95.055 E14.71515
G1 X123.409 Y95.791 E14.74337
G1 X104.209 Y76.591 E15.78360
G1 X103.473 Y76.591 E15.81181
G1 X123.409 Y96.528 E16.89194
G1 X123.409 Y97.264 E16.92015
G1 X102.736 Y76.591 E18.04019
G1 X102.000 Y76.591 E18.06840
G1 X123.409 Y98.001 E19.22833
G1 X123.409 Y98.737 E19.25654
G1 X101.263 Y76.591 E20.45638
G1 X100.527 Y76.591 E20.48459
G1 X123.409 Y99.474 E21.72432
G1 X123.409 Y100.210 E21.75254
G1 X99.790 Y76.591 E23.03217
G1 X99.054 Y76.591 E23.06038
G1 X123.409 Y100.947 E24.37992
G1 X123.409 Y101.683 E24.40813
G1 X98.317 Y76.591 E25.76757
G1 X97.581 Y76.591 E25.79578
G1 X123.409 Y102.420 E27.19512
G1 X123.409 Y103.156 E27.22333
G1 X96.844 Y76.591 E28.66257
G1 X96.108 Y76.591 E28.69078
G1 X123.409 Y103.893 E30.16992
G1 X123.409 Y104.629 E30.19813
G1 X95.371 Y76.591 E31.71717
G1 X94.635 Y76.591 E31.74538
G1 X123.409 Y105.366 E33.30432
G1 X123.409 Y106.102 E33.33253
G1 X93.898 Y76.591 E34.93137
G1 X93.162 Y76.591 E34.95959
G1 X123.409 Y106.838 E36.59833
G1 X123.409 Y107.575 E36.62654
G1 X92.426 Y76.591 E38.30518
G1 X91.689 Y76.591 E38.33339
G1 X123.409 Y108.311 E40.05193
G1 X123.409 Y109.048 E40.08015
G1 X90.953 Y76.591 E41.83859
G1 X90.216 Y76.591 E41.86680
G1 X123.409 Y109.784 E43.66514
G1 X123.409 Y110.521 E43.69336
G1 X89.480 Y76.591 E45.53160
G1 X88.743 Y76.591 E45.55982
G1 X123.409 Y111.257 E47.43796
G1 X123.409 Y111.994 E47.46617
G1 X88.007 Y76.591 E49.38422
G1 X87.270 Y76.591 E49.41243
G1 X123.409 Y112.730 E51.37037
G1 X123.409 Y113.467 E51.39859
G1 X86.534 Y76.591 E53.39643
G1 X85.797 Y76.591 E53.42465
G1 X123.409 Y114.203 E55.46239
G1 X123.409 Y114.940 E55.49061
G1 X85.061 Y76.591 E57.56825
G1 X84.324 Y76.591 E57.59647
G1 X123.409 Y115.676 E59.71402
G1 X123.409 Y116.413 E59.74223
G1 X83.588 Y76.591 E61.89968
G1 X82.851 Y76.591 E61.92789
G1 X123.409 Y117.149 E64.12524
G1 X123.409 Y117.886 E64.15345
G1 X82.115 Y76.591 E66.39070
G1 X81.378 Y76.591 E66.41892
G1 X123.409 Y118.622 E68.69607
G1 X123.409 Y119.358 E68.72428
G1 X80.642 Y76.591 E71.04133
G1 X79.906 Y76.591 E71.06954
G1 X123.409 Y120.095 E73.42650
G1 X123.409 Y120.831 E73.45471
G1 X79.169 Y76.591 E75.85156
G1 X78.433 Y76.591 E75.87978
G1 X123.409 Y121.568 E78.31653
G1 X123.409 Y122.304 E78.34474
G1 X77.696 Y76.591 E80.82139
G1 X76.960 Y76.591 E80.84961
G1 X123.409 Y123.041 E83.36616
G1 X123.040 Y123.409 E83.38611
G1 X76.591 Y76.959 E85.90268
G1 X76.591 Y77.695 E85.93089
G1 X122.304 Y123.409 E88.40755
G1 X121.568 Y123.409 E88.43577
G1 X76.591 Y78.432 E90.87253
G1 X76.591 Y79.168 E90.90074
G1 X120.831 Y123.409 E93.29760
G1 X120.095 Y123.409 E93.32582
G1 X76.591 Y79.905 E95.68278
G1 X76.591 Y80.641 E95.71099
G1 X119.358 Y123.409 E98.02805
G1 X118.622 Y123.409 E98.05627
G1 X76.591 Y81.378 E100.33342
G1 X76.591 Y82.114 E100.36164
G1 X117.885 Y123.409 E102.59890
G1 X117.149 Y123.409 E102.62711
G1 X76.591 Y82.851 E104.82447
G1 X76.591 Y83.587 E104.85268
G1 X116.412 Y123.409 E107.01014
G1 X115.676 Y123.409 E107.03835
G1 X76.591 Y84.324 E109.15591
G1 X76.591 Y85.060 E109.18412
G1 X114.939 Y123.409 E111.26178
G1 X114.203 Y123.409 E111.28999
G1 X76.591 Y85.797 E113.32775
G1 X76.591 Y86.533 E113.35596
G1 X113.466 Y123.409 E115.35382
G1 X112.730 Y123.409 E115.38203
G1 X76.591 Y87.270 E117.33999
G1 X76.591 Y88.006 E117.36820
G1 X111.993 Y123.409 E119.28625
G1 X111.257 Y123.409 E119.31447
G1 X76.591 Y88.743 E121.19262
G1 X76.591 Y89.479 E121.22083
G1 X110.521 Y123.409 E123.05908
G1 X109.784 Y123.409 E123.08730
G1 X76.591 Y90.215 E124.88565
G1 X76.591 Y90.952 E124.91386
G1 X109.048 Y123.409 E126.67231
G1 X108.311 Y123.409 E126.70053
G1 X76.591 Y91.688 E128.41908
G1 X76.591 Y92.425 E128.44729
G1 X107.575 Y123.409 E130.12594
G1 X106.838 Y123.409 E130.15416
G1 X76.591 Y93.161 E131.79290
G1 X76.591 Y93.898 E131.82112
G1 X106.102 Y123.409 E133.41997
G1 X105.365 Y123.409 E133.44818
G1 X76.591 Y94.634 E135.00713
G1 X76.591 Y95.371 E135.03534
G1 X104.629 Y123.409 E136.55439
G1 X103.892 Y123.409 E136.58260
G1 X76.591 Y96.107 E138.06175
G1 X76.591 Y96.844 E138.08996
G1 X103.156 Y123.409 E139.52921
G1 X102.419 Y123.409 E139.55742
G1 X76.591 Y97.580 E140.95677
G1 X76.591 Y98.317 E140.98498
G1 X101.683 Y123.409 E142.34442
G1 X100.946 Y123.409 E142.37264
G1 X76.591 Y99.053 E143.69218
G1 X76.591 Y99.790 E143.72039
G1 X100.210 Y123.409 E145.00004
G1 X99.473 Y123.409 E145.02825
G1 X76.591 Y100.526 E146.26799
G1 X76.591 Y101.262 E146.29621
G1 X98.737 Y123.409 E147.49605
G1 X98.001 Y123.409 E147.52426
G1 X76.591 Y101.999 E148.68420
G1 X76.591 Y102.735 E148.71242
G1 X97.264 Y123.409 E149.83246
G1 X96.528 Y123.409 E149.86067
G1 X76.591 Y103.472 E150.94081
G1 X76.591 Y104.208 E150.96902
G1 X95.791 Y123.409 E152.00926
G1 X95.055 Y123.409 E152.03748
G1 X76.591 Y104.945 E153.03781
G1 X76.591 Y105.681 E153.06603
G1 X94.318 Y123.409 E154.02647
G1 X93.582 Y123.409 E154.05468
G1 X76.591 Y106.418 E154.97522
G1 X76.591 Y107.154 E155.00343
G1 X92.845 Y123.409 E155.88407
G1 X92.109 Y123.409 E155.91228
G1 X76.591 Y107.891 E156.75302
G1 X76.591 Y108.627 E156.78123
G1 X91.372 Y123.409 E157.58206
G1 X90.636 Y123.409 E157.61028
G1 X76.591 Y109.364 E158.37121
G1 X76.591 Y110.100 E158.39943
G1 X89.899 Y123.409 E159.12046
G1 X89.163 Y123.409 E159.14867
G1 X76.591 Y110.837 E159.82981
G1 X76.591 Y111.573 E159.85802
G1 X88.426 Y123.409 E160.49925
G1 X87.690 Y123.409 E160.52747
G1 X76.591 Y112.310 E161.12880
G1 X76.591 Y113.046 E161.15701
G1 X86.954 Y123.409 E161.71844
G1 X86.217 Y123.409 E161.74666
G1 X76.591 Y113.782 E162.26819
G1 X76.591 Y114.519 E162.29640
G1 X85.481 Y123.409 E162.77803
G1 X84.744 Y123.409 E162.80624
G1 X76.591 Y115.255 E163.24797
G1 X76.591 Y115.992 E163.27619
G1 X84.008 Y123.409 E163.67802
G1 X83.271 Y123.409 E163.70623
G1 X76.591 Y116.728 E164.06816
G1 X76.591 Y117.465 E164.09637
G1 X82.535 Y123.409 E164.41840
G1 X81.798 Y123.409 E164.44661
G1 X76.591 Y118.201 E164.72874
G1 X76.591 Y118.938 E164.75695
G1 X81.062 Y123.409 E164.99918
G1 X80.325 Y123.409 E165.02739
G1 X76.591 Y119.674 E165.22972
G1 X76.591 Y120.411 E165.25793
G1 X79.589 Y123.409 E165.42035
G1 X78.852 Y123.409 E165.44857
G1 X76.591 Y121.147 E165.57109
G1 X76.591 Y121.884 E165.59931
G1 X78.116 Y123.409 E165.68193
G1 X77.379 Y123.409 E165.71014
G1 X76.591 Y122.620 E165.75286
G1 X76.591 Y123.357 E165.78108
G1 X76.643 Y123.409 E165.78390
G1 X75.250 Y124.750 F10800.000
G1 X75.250 Y75.251 E167.60460 F1470
G1 X124.750 Y75.251 E169.42533
G1 X124.750 Y124.750 E171.24602
G1 X75.325 Y124.750 E173.06400
G1 X75.500 Y124.316 F10800.000
G1 F1800.000 E172.06400
				
G1	X112	Y100	Z1.5	E172.064
G1	X110.3923048	Y106	Z1.5	E172.2307356
G1	X106	Y110.3923048	Z1.5	E172.3528381
G1	X100	Y112	Z1.5	E172.3977528
G1	X94	Y110.3923048	Z1.5	E172.4426675
G1	X89.60769515	Y106	Z1.5	E172.56477
G1	X88	Y100	Z1.5	E172.7315056
G1	X89.60769515	Y94	Z1.5	E172.8982412
G1	X94	Y89.60769515	Z1.5	E173.0203438
G1	X100	Y88	Z1.5	E173.0652584
G1	X106	Y89.60769515	Z1.5	E173.1101731
G1	X110.3923048	Y94	Z1.5	E173.2322757
G1	X109	Y100	Z1.5	E173.3990101
G1	X107.7942286	Y104.5	Z1.5	E173.5240618
G1	X104.5	Y107.7942286	Z1.5	E173.6156387
G1	X100	Y109	Z1.5	E173.6493247
G1	X95.5	Y107.7942286	Z1.5	E173.6830107
G1	X92.20577137	Y104.5	Z1.5	E173.7745876
G1	X91	Y100	Z1.5	E173.8996393
G1	X92.20577137	Y95.5	Z1.5	E174.024691
G1	X95.5	Y92.20577137	Z1.5	E174.1162679
G1	X100	Y91	Z1.5	E174.1499539
G1	X104.5	Y92.20577137	Z1.5	E174.1836399
G1	X107.7942286	Y95.5	Z1.5	E174.2752168
G1	X109.5	Y100	Z1.5	E174.400272
G1	X108.2272413	Y104.75	Z1.5	E174.532271
G1	X104.75	Y108.2272413	Z1.5	E174.6289355
G1	X100	Y109.5	Z1.5	E174.6644929
G1	X95.25	Y108.2272413	Z1.5	E174.7000504
G1	X91.77275866	Y104.75	Z1.5	E174.7967149
G1	X90.5	Y100	Z1.5	E174.9287139
G1	X91.77275866	Y95.25	Z1.5	E175.0607129
G1	X95.25	Y91.77275866	Z1.5	E175.1573774
G1	X100	Y90.5	Z1.5	E175.1929349
G1	X104.75	Y91.77275866	Z1.5	E175.2284923
G1	X108.2272413	Y95.25	Z1.5	E175.3251569
G1	X110	Y100	Z1.5	E175.4571593
G1	X108.660254	Y105	Z1.5	E175.5961056
G1	X105	Y108.660254	Z1.5	E175.6978577
G1	X100	Y110	Z1.5	E175.7352866
G1	X95	Y108.660254	Z1.5	E175.7727155
G1	X91.33974596	Y105	Z1.5	E175.8744677
G1	X90	Y100	Z1.5	E176.013414
G1	X91.33974596	Y95	Z1.5	E176.1523603
G1	X95	Y91.33974596	Z1.5	E176.2541124
G1	X100	Y90	Z1.5	E176.2915413
G1	X105	Y91.33974596	Z1.5	E176.3289702
G1	X108.660254	Y95	Z1.5	E176.4307223
G1	X110.5	Y100	Z1.5	E176.5696721
G1	X109.0932667	Y105.25	Z1.5	E176.7155657
G1	X105.25	Y109.0932667	Z1.5	E176.8224054
G1	X100	Y110.5	Z1.5	E176.8617058
G1	X94.75	Y109.0932667	Z1.5	E176.9010061
G1	X90.90673326	Y105.25	Z1.5	E177.0078458
G1	X89.5	Y100	Z1.5	E177.1537395
G1	X90.90673326	Y94.75	Z1.5	E177.2996331
G1	X94.75	Y90.90673326	Z1.5	E177.4064728
G1	X100	Y89.5	Z1.5	E177.4457732
G1	X105.25	Y90.90673326	Z1.5	E177.4850735
G1	X109.0932667	Y94.75	Z1.5	E177.5919133
G1	X111	Y100	Z1.5	E177.7378103
G1	X109.5262794	Y105.5	Z1.5	E177.8906512
G1	X105.5	Y109.5262794	Z1.5	E178.0025786
G1	X100	Y111	Z1.5	E178.0437503
G1	X94.5	Y109.5262794	Z1.5	E178.0849221
G1	X90.47372056	Y105.5	Z1.5	E178.1968495
G1	X89	Y100	Z1.5	E178.3496904
G1	X90.47372056	Y94.5	Z1.5	E178.5025313
G1	X94.5	Y90.47372056	Z1.5	E178.6144587
G1	X100	Y89	Z1.5	E178.6556305
G1	X105.5	Y90.47372056	Z1.5	E178.6968023
G1	X109.5262794	Y94.5	Z1.5	E178.8087296
G1	X111.5	Y100	Z1.5	E178.9615739
G1	X109.9592921	Y105.75	Z1.5	E179.1213622
G1	X105.75	Y109.9592921	Z1.5	E179.2383771
G1	X100	Y111.5	Z1.5	E179.2814203
G1	X94.25	Y109.9592921	Z1.5	E179.3244636
G1	X90.04070786	Y105.75	Z1.5	E179.4414785
G1	X88.5	Y100	Z1.5	E179.6012668
G1	X90.04070786	Y94.25	Z1.5	E179.761055
G1	X94.25	Y90.04070786	Z1.5	E179.87807
G1	X100	Y88.5	Z1.5	E179.9211132
G1	X105.75	Y90.04070786	Z1.5	E179.9641564
G1	X109.9592921	Y94.25	Z1.5	E180.0811714
G1	X112	Y100	Z2	E180.240963
G1	X110.3923048	Y106	Z2	E180.4076986
G1	X106	Y110.3923048	Z2	E180.5298011
G1	X100	Y112	Z2	E180.5747158
G1	X94	Y110.3923048	Z2	E180.6196305
G1	X89.60769515	Y106	Z2	E180.7417331
G1	X88	Y100	Z2	E180.9084686
G1	X89.60769515	Y94	Z2	E181.0752042
G1	X94	Y89.60769515	Z2	E181.1973068
G1	X100	Y88	Z2	E181.2422214
G1	X106	Y89.60769515	Z2	E181.2871361
G1	X110.3923048	Y94	Z2	E181.4092387
G1	X109	Y100	Z2	E181.5759731
G1	X107.7942286	Y104.5	Z2	E181.7010248
G1	X104.5	Y107.7942286	Z2	E181.7926017
G1	X100	Y109	Z2	E181.8262877
G1	X95.5	Y107.7942286	Z2	E181.8599737
G1	X92.20577137	Y104.5	Z2	E181.9515506
G1	X91	Y100	Z2	E182.0766023
G1	X92.20577137	Y95.5	Z2	E182.201654
G1	X95.5	Y92.20577137	Z2	E182.2932309
G1	X100	Y91	Z2	E182.3269169
G1	X104.5	Y92.20577137	Z2	E182.3606029
G1	X107.7942286	Y95.5	Z2	E182.4521798
G1	X109.5	Y100	Z2	E182.577235
G1	X108.2272413	Y104.75	Z2	E182.709234
G1	X104.75	Y108.2272413	Z2	E182.8058985
G1	X100	Y109.5	Z2	E182.8414559
G1	X95.25	Y108.2272413	Z2	E182.8770134
G1	X91.77275866	Y104.75	Z2	E182.9736779
G1	X90.5	Y100	Z2	E183.1056769
G1	X91.77275866	Y95.25	Z2	E183.2376759
G1	X95.25	Y91.77275866	Z2	E183.3343404
G1	X100	Y90.5	Z2	E183.3698979
G1	X104.75	Y91.77275866	Z2	E183.4054553
G1	X108.2272413	Y95.25	Z2	E183.5021199
G1	X110	Y100	Z2	E183.6341223
G1	X108.660254	Y105	Z2	E183.7730686
G1	X105	Y108.660254	Z2	E183.8748207
G1	X100	Y110	Z2	E183.9122496
G1	X95	Y108.660254	Z2	E183.9496785
G1	X91.33974596	Y105	Z2	E184.0514307
G1	X90	Y100	Z2	E184.190377
G1	X91.33974596	Y95	Z2	E184.3293233
G1	X95	Y91.33974596	Z2	E184.4310754
G1	X100	Y90	Z2	E184.4685043
G1	X105	Y91.33974596	Z2	E184.5059332
G1	X108.660254	Y95	Z2	E184.6076853
G1	X110.5	Y100	Z2	E184.7466351
G1	X109.0932667	Y105.25	Z2	E184.8925287
G1	X105.25	Y109.0932667	Z2	E184.9993684
G1	X100	Y110.5	Z2	E185.0386688
G1	X94.75	Y109.0932667	Z2	E185.0779691
G1	X90.90673326	Y105.25	Z2	E185.1848088
G1	X89.5	Y100	Z2	E185.3307025
G1	X90.90673326	Y94.75	Z2	E185.4765961
G1	X94.75	Y90.90673326	Z2	E185.5834358
G1	X100	Y89.5	Z2	E185.6227362
G1	X105.25	Y90.90673326	Z2	E185.6620365
G1	X109.0932667	Y94.75	Z2	E185.7688763
G1	X111	Y100	Z2	E185.9147733
G1	X109.5262794	Y105.5	Z2	E186.0676142
G1	X105.5	Y109.5262794	Z2	E186.1795416
G1	X100	Y111	Z2	E186.2207133
G1	X94.5	Y109.5262794	Z2	E186.2618851
G1	X90.47372056	Y105.5	Z2	E186.3738125
G1	X89	Y100	Z2	E186.5266534
G1	X90.47372056	Y94.5	Z2	E186.6794943
G1	X94.5	Y90.47372056	Z2	E186.7914217
G1	X100	Y89	Z2	E186.8325935
G1	X105.5	Y90.47372056	Z2	E186.8737653
G1	X109.5262794	Y94.5	Z2	E186.9856926
G1	X111.5	Y100	Z2	E187.1385369
G1	X109.9592921	Y105.75	Z2	E187.2983252
G1	X105.75	Y109.9592921	Z2	E187.4153401
G1	X100	Y111.5	Z2	E187.4583834
G1	X94.25	Y109.9592921	Z2	E187.5014266
G1	X90.04070786	Y105.75	Z2	E187.6184415
G1	X88.5	Y100	Z2	E187.7782298
G1	X90.04070786	Y94.25	Z2	E187.938018
G1	X94.25	Y90.04070786	Z2	E188.055033
G1	X100	Y88.5	Z2	E188.0980762
G1	X105.75	Y90.04070786	Z2	E188.1411195
G1	X109.9592921	Y94.25	Z2	E188.2581344
G1	X112	Y100	Z2.5	E188.417926
G1	X110.3923048	Y106	Z2.5	E188.5846616
G1	X106	Y110.3923048	Z2.5	E188.7067642
G1	X100	Y112	Z2.5	E188.7516788
G1	X94	Y110.3923048	Z2.5	E188.7965935
G1	X89.60769515	Y106	Z2.5	E188.9186961
G1	X88	Y100	Z2.5	E189.0854316
G1	X89.60769515	Y94	Z2.5	E189.2521672
G1	X94	Y89.60769515	Z2.5	E189.3742698
G1	X100	Y88	Z2.5	E189.4191844
G1	X106	Y89.60769515	Z2.5	E189.4640991
G1	X110.3923048	Y94	Z2.5	E189.5862017
G1	X109	Y100	Z2.5	E189.7529361
G1	X107.7942286	Y104.5	Z2.5	E189.8779878
G1	X104.5	Y107.7942286	Z2.5	E189.9695647
G1	X100	Y109	Z2.5	E190.0032507
G1	X95.5	Y107.7942286	Z2.5	E190.0369367
G1	X92.20577137	Y104.5	Z2.5	E190.1285136
G1	X91	Y100	Z2.5	E190.2535653
G1	X92.20577137	Y95.5	Z2.5	E190.378617
G1	X95.5	Y92.20577137	Z2.5	E190.4701939
G1	X100	Y91	Z2.5	E190.5038799
G1	X104.5	Y92.20577137	Z2.5	E190.5375659
G1	X107.7942286	Y95.5	Z2.5	E190.6291428
G1	X109.5	Y100	Z2.5	E190.754198
G1	X108.2272413	Y104.75	Z2.5	E190.886197
G1	X104.75	Y108.2272413	Z2.5	E190.9828615
G1	X100	Y109.5	Z2.5	E191.0184189
G1	X95.25	Y108.2272413	Z2.5	E191.0539764
G1	X91.77275866	Y104.75	Z2.5	E191.1506409
G1	X90.5	Y100	Z2.5	E191.2826399
G1	X91.77275866	Y95.25	Z2.5	E191.4146389
G1	X95.25	Y91.77275866	Z2.5	E191.5113034
G1	X100	Y90.5	Z2.5	E191.5468609
G1	X104.75	Y91.77275866	Z2.5	E191.5824183
G1	X108.2272413	Y95.25	Z2.5	E191.6790829
G1	X110	Y100	Z2.5	E191.8110853
G1	X108.660254	Y105	Z2.5	E191.9500316
G1	X105	Y108.660254	Z2.5	E192.0517838
G1	X100	Y110	Z2.5	E192.0892126
G1	X95	Y108.660254	Z2.5	E192.1266415
G1	X91.33974596	Y105	Z2.5	E192.2283937
G1	X90	Y100	Z2.5	E192.36734
G1	X91.33974596	Y95	Z2.5	E192.5062863
G1	X95	Y91.33974596	Z2.5	E192.6080384
G1	X100	Y90	Z2.5	E192.6454673
G1	X105	Y91.33974596	Z2.5	E192.6828962
G1	X108.660254	Y95	Z2.5	E192.7846483
G1	X110.5	Y100	Z2.5	E192.9235981
G1	X109.0932667	Y105.25	Z2.5	E193.0694917
G1	X105.25	Y109.0932667	Z2.5	E193.1763314
G1	X100	Y110.5	Z2.5	E193.2156318
G1	X94.75	Y109.0932667	Z2.5	E193.2549321
G1	X90.90673326	Y105.25	Z2.5	E193.3617719
G1	X89.5	Y100	Z2.5	E193.5076655
G1	X90.90673326	Y94.75	Z2.5	E193.6535591
G1	X94.75	Y90.90673326	Z2.5	E193.7603988
G1	X100	Y89.5	Z2.5	E193.7996992
G1	X105.25	Y90.90673326	Z2.5	E193.8389995
G1	X109.0932667	Y94.75	Z2.5	E193.9458393
G1	X111	Y100	Z2.5	E194.0917363
G1	X109.5262794	Y105.5	Z2.5	E194.2445772
G1	X105.5	Y109.5262794	Z2.5	E194.3565046
G1	X100	Y111	Z2.5	E194.3976763
G1	X94.5	Y109.5262794	Z2.5	E194.4388481
G1	X90.47372056	Y105.5	Z2.5	E194.5507755
G1	X89	Y100	Z2.5	E194.7036164
G1	X90.47372056	Y94.5	Z2.5	E194.8564574
G1	X94.5	Y90.47372056	Z2.5	E194.9683847
G1	X100	Y89	Z2.5	E195.0095565
G1	X105.5	Y90.47372056	Z2.5	E195.0507283
G1	X109.5262794	Y94.5	Z2.5	E195.1626556
G1	X111.5	Y100	Z2.5	E195.3154999
G1	X109.9592921	Y105.75	Z2.5	E195.4752882
G1	X105.75	Y109.9592921	Z2.5	E195.5923031
G1	X100	Y111.5	Z2.5	E195.6353464
G1	X94.25	Y109.9592921	Z2.5	E195.6783896
G1	X90.04070786	Y105.75	Z2.5	E195.7954045
G1	X88.5	Y100	Z2.5	E195.9551928
G1	X90.04070786	Y94.25	Z2.5	E196.1149811
G1	X94.25	Y90.04070786	Z2.5	E196.231996
G1	X100	Y88.5	Z2.5	E196.2750392
G1	X105.75	Y90.04070786	Z2.5	E196.3180825
G1	X109.9592921	Y94.25	Z2.5	E196.4350974
G1	X112	Y100	Z3	E196.594889
G1	X110.3923048	Y106	Z3	E196.7616246
G1	X106	Y110.3923048	Z3	E196.8837272
G1	X100	Y112	Z3	E196.9286418
G1	X94	Y110.3923048	Z3	E196.9735565
G1	X89.60769515	Y106	Z3	E197.0956591
G1	X88	Y100	Z3	E197.2623946
G1	X89.60769515	Y94	Z3	E197.4291302
G1	X94	Y89.60769515	Z3	E197.5512328
G1	X100	Y88	Z3	E197.5961474
G1	X106	Y89.60769515	Z3	E197.6410621
G1	X110.3923048	Y94	Z3	E197.7631647
G1	X109	Y100	Z3	E197.9298991
G1	X107.7942286	Y104.5	Z3	E198.0549508
G1	X104.5	Y107.7942286	Z3	E198.1465277
G1	X100	Y109	Z3	E198.1802137
G1	X95.5	Y107.7942286	Z3	E198.2138997
G1	X92.20577137	Y104.5	Z3	E198.3054766
G1	X91	Y100	Z3	E198.4305283
G1	X92.20577137	Y95.5	Z3	E198.55558
G1	X95.5	Y92.20577137	Z3	E198.6471569
G1	X100	Y91	Z3	E198.6808429
G1	X104.5	Y92.20577137	Z3	E198.7145289
G1	X107.7942286	Y95.5	Z3	E198.8061058
G1	X109.5	Y100	Z3	E198.931161
G1	X108.2272413	Y104.75	Z3	E199.06316
G1	X104.75	Y108.2272413	Z3	E199.1598245
G1	X100	Y109.5	Z3	E199.195382
G1	X95.25	Y108.2272413	Z3	E199.2309394
G1	X91.77275866	Y104.75	Z3	E199.3276039
G1	X90.5	Y100	Z3	E199.4596029
G1	X91.77275866	Y95.25	Z3	E199.5916019
G1	X95.25	Y91.77275866	Z3	E199.6882665
G1	X100	Y90.5	Z3	E199.7238239
G1	X104.75	Y91.77275866	Z3	E199.7593813
G1	X108.2272413	Y95.25	Z3	E199.8560459
G1	X110	Y100	Z3	E199.9880483
G1	X108.660254	Y105	Z3	E200.1269946
G1	X105	Y108.660254	Z3	E200.2287468
G1	X100	Y110	Z3	E200.2661756
G1	X95	Y108.660254	Z3	E200.3036045
G1	X91.33974596	Y105	Z3	E200.4053567
G1	X90	Y100	Z3	E200.544303
G1	X91.33974596	Y95	Z3	E200.6832493
G1	X95	Y91.33974596	Z3	E200.7850014
G1	X100	Y90	Z3	E200.8224303
G1	X105	Y91.33974596	Z3	E200.8598592
G1	X108.660254	Y95	Z3	E200.9616114
G1	X110.5	Y100	Z3	E201.1005611
G1	X109.0932667	Y105.25	Z3	E201.2464547
G1	X105.25	Y109.0932667	Z3	E201.3532944
G1	X100	Y110.5	Z3	E201.3925948
G1	X94.75	Y109.0932667	Z3	E201.4318951
G1	X90.90673326	Y105.25	Z3	E201.5387349
G1	X89.5	Y100	Z3	E201.6846285
G1	X90.90673326	Y94.75	Z3	E201.8305221
G1	X94.75	Y90.90673326	Z3	E201.9373619
G1	X100	Y89.5	Z3	E201.9766622
G1	X105.25	Y90.90673326	Z3	E202.0159625
G1	X109.0932667	Y94.75	Z3	E202.1228023
G1	X111	Y100	Z3	E202.2686993
G1	X109.5262794	Y105.5	Z3	E202.4215402
G1	X105.5	Y109.5262794	Z3	E202.5334676
G1	X100	Y111	Z3	E202.5746393
G1	X94.5	Y109.5262794	Z3	E202.6158111
G1	X90.47372056	Y105.5	Z3	E202.7277385
G1	X89	Y100	Z3	E202.8805794
G1	X90.47372056	Y94.5	Z3	E203.0334204
G1	X94.5	Y90.47372056	Z3	E203.1453477
G1	X100	Y89	Z3	E203.1865195
G1	X105.5	Y90.47372056	Z3	E203.2276913
G1	X109.5262794	Y94.5	Z3	E203.3396186
G1	X111.5	Y100	Z3	E203.4924629
G1	X109.9592921	Y105.75	Z3	E203.6522512
G1	X105.75	Y109.9592921	Z3	E203.7692661
G1	X100	Y111.5	Z3	E203.8123094
G1	X94.25	Y109.9592921	Z3	E203.8553526
G1	X90.04070786	Y105.75	Z3	E203.9723676
G1	X88.5	Y100	Z3	E204.1321558
G1	X90.04070786	Y94.25	Z3	E204.2919441
G1	X94.25	Y90.04070786	Z3	E204.408959
G1	X100	Y88.5	Z3	E204.4520022
G1	X105.75	Y90.04070786	Z3	E204.4950455
G1	X109.9592921	Y94.25	Z3	E204.6120604
G1	X112	Y100	Z3.5	E204.771852
G1	X110.3923048	Y106	Z3.5	E204.9385876
G1	X106	Y110.3923048	Z3.5	E205.0606902
G1	X100	Y112	Z3.5	E205.1056048
G1	X94	Y110.3923048	Z3.5	E205.1505195
G1	X89.60769515	Y106	Z3.5	E205.2726221
G1	X88	Y100	Z3.5	E205.4393576
G1	X89.60769515	Y94	Z3.5	E205.6060932
G1	X94	Y89.60769515	Z3.5	E205.7281958
G1	X100	Y88	Z3.5	E205.7731104
G1	X106	Y89.60769515	Z3.5	E205.8180251
G1	X110.3923048	Y94	Z3.5	E205.9401277
G1	X109	Y100	Z3.5	E206.1068621
G1	X107.7942286	Y104.5	Z3.5	E206.2319138
G1	X104.5	Y107.7942286	Z3.5	E206.3234907
G1	X100	Y109	Z3.5	E206.3571767
G1	X95.5	Y107.7942286	Z3.5	E206.3908627
G1	X92.20577137	Y104.5	Z3.5	E206.4824396
G1	X91	Y100	Z3.5	E206.6074913
G1	X92.20577137	Y95.5	Z3.5	E206.732543
G1	X95.5	Y92.20577137	Z3.5	E206.8241199
G1	X100	Y91	Z3.5	E206.8578059
G1	X104.5	Y92.20577137	Z3.5	E206.8914919
G1	X107.7942286	Y95.5	Z3.5	E206.9830688
G1	X109.5	Y100	Z3.5	E207.108124
G1	X108.2272413	Y104.75	Z3.5	E207.240123
G1	X104.75	Y108.2272413	Z3.5	E207.3367875
G1	X100	Y109.5	Z3.5	E207.372345
G1	X95.25	Y108.2272413	Z3.5	E207.4079024
G1	X91.77275866	Y104.75	Z3.5	E207.5045669
G1	X90.5	Y100	Z3.5	E207.6365659
G1	X91.77275866	Y95.25	Z3.5	E207.7685649
G1	X95.25	Y91.77275866	Z3.5	E207.8652295
G1	X100	Y90.5	Z3.5	E207.9007869
G1	X104.75	Y91.77275866	Z3.5	E207.9363443
G1	X108.2272413	Y95.25	Z3.5	E208.0330089
G1	X110	Y100	Z3.5	E208.1650113
G1	X108.660254	Y105	Z3.5	E208.3039576
G1	X105	Y108.660254	Z3.5	E208.4057098
G1	X100	Y110	Z3.5	E208.4431386
G1	X95	Y108.660254	Z3.5	E208.4805675
G1	X91.33974596	Y105	Z3.5	E208.5823197
G1	X90	Y100	Z3.5	E208.721266
G1	X91.33974596	Y95	Z3.5	E208.8602123
G1	X95	Y91.33974596	Z3.5	E208.9619644
G1	X100	Y90	Z3.5	E208.9993933
G1	X105	Y91.33974596	Z3.5	E209.0368222
G1	X108.660254	Y95	Z3.5	E209.1385744
G1	X110.5	Y100	Z3.5	E209.2775241
G1	X109.0932667	Y105.25	Z3.5	E209.4234177
G1	X105.25	Y109.0932667	Z3.5	E209.5302574
G1	X100	Y110.5	Z3.5	E209.5695578
G1	X94.75	Y109.0932667	Z3.5	E209.6088581
G1	X90.90673326	Y105.25	Z3.5	E209.7156979
G1	X89.5	Y100	Z3.5	E209.8615915
G1	X90.90673326	Y94.75	Z3.5	E210.0074851
G1	X94.75	Y90.90673326	Z3.5	E210.1143249
G1	X100	Y89.5	Z3.5	E210.1536252
G1	X105.25	Y90.90673326	Z3.5	E210.1929255
G1	X109.0932667	Y94.75	Z3.5	E210.2997653
G1	X111	Y100	Z3.5	E210.4456623
G1	X109.5262794	Y105.5	Z3.5	E210.5985032
G1	X105.5	Y109.5262794	Z3.5	E210.7104306
G1	X100	Y111	Z3.5	E210.7516024
G1	X94.5	Y109.5262794	Z3.5	E210.7927741
G1	X90.47372056	Y105.5	Z3.5	E210.9047015
G1	X89	Y100	Z3.5	E211.0575424
G1	X90.47372056	Y94.5	Z3.5	E211.2103834
G1	X94.5	Y90.47372056	Z3.5	E211.3223107
G1	X100	Y89	Z3.5	E211.3634825
G1	X105.5	Y90.47372056	Z3.5	E211.4046543
G1	X109.5262794	Y94.5	Z3.5	E211.5165816
G1	X111.5	Y100	Z3.5	E211.6694259
G1	X109.9592921	Y105.75	Z3.5	E211.8292142
G1	X105.75	Y109.9592921	Z3.5	E211.9462291
G1	X100	Y111.5	Z3.5	E211.9892724
G1	X94.25	Y109.9592921	Z3.5	E212.0323156
G1	X90.04070786	Y105.75	Z3.5	E212.1493306
G1	X88.5	Y100	Z3.5	E212.3091188
G1	X90.04070786	Y94.25	Z3.5	E212.4689071
G1	X94.25	Y90.04070786	Z3.5	E212.585922
G1	X100	Y88.5	Z3.5	E212.6289652
G1	X105.75	Y90.04070786	Z3.5	E212.6720085
G1	X109.9592921	Y94.25	Z3.5	E212.7890234
G1	X	Y	Z	E
G1	X112	Y100	Z4	E235.5932172
G1	X110.3923048	Y106	Z4	E235.7657633
G1	X106	Y110.3923048	Z4	E235.9383093
G1	X100	Y112	Z4	E236.1108553
G1	X94	Y110.3923048	Z4	E236.2834014
G1	X89.60769515	Y106	Z4	E236.4559474
G1	X88	Y100	Z4	E236.6284934
G1	X89.60769515	Y94	Z4	E236.8010395
G1	X94	Y89.60769515	Z4	E236.9735855
G1	X100	Y88	Z4	E237.1461315
G1	X106	Y89.60769515	Z4	E237.3186775
G1	X110.3923048	Y94	Z4	E237.4912236
G1	X109	Y100	Z4	E237.6623187
G1	X107.7942286	Y104.5	Z4	E237.7917282
G1	X104.5	Y107.7942286	Z4	E237.9211377
G1	X100	Y109	Z4	E238.0505473
G1	X95.5	Y107.7942286	Z4	E238.1799568
G1	X92.20577137	Y104.5	Z4	E238.3093663
G1	X91	Y100	Z4	E238.4387758
G1	X92.20577137	Y95.5	Z4	E238.5681854
G1	X95.5	Y92.20577137	Z4	E238.6975949
G1	X100	Y91	Z4	E238.8270044
G1	X104.5	Y92.20577137	Z4	E238.9564139
G1	X107.7942286	Y95.5	Z4	E239.0858235
G1	X109.5	Y100	Z4	E239.2195026
G1	X108.2272413	Y104.75	Z4	E239.3561015
G1	X104.75	Y108.2272413	Z4	E239.4927004
G1	X100	Y109.5	Z4	E239.6292994
G1	X95.25	Y108.2272413	Z4	E239.7658983
G1	X91.77275866	Y104.75	Z4	E239.9024973
G1	X90.5	Y100	Z4	E240.0390962
G1	X91.77275866	Y95.25	Z4	E240.1756951
G1	X95.25	Y91.77275866	Z4	E240.3122941
G1	X100	Y90.5	Z4	E240.448893
G1	X104.75	Y91.77275866	Z4	E240.585492
G1	X108.2272413	Y95.25	Z4	E240.7220909
G1	X110	Y100	Z4	E240.862925
G1	X108.660254	Y105	Z4	E241.0067133
G1	X105	Y108.660254	Z4	E241.1505017
G1	X100	Y110	Z4	E241.2942901
G1	X95	Y108.660254	Z4	E241.4380784
G1	X91.33974596	Y105	Z4	E241.5818668
G1	X90	Y100	Z4	E241.7256551
G1	X91.33974596	Y95	Z4	E241.8694435
G1	X95	Y91.33974596	Z4	E242.0132319
G1	X100	Y90	Z4	E242.1570202
G1	X105	Y91.33974596	Z4	E242.3008086
G1	X108.660254	Y95	Z4	E242.4445969
G1	X110.5	Y100	Z4	E242.5925893
G1	X109.0932667	Y105.25	Z4	E242.7435671
G1	X105.25	Y109.0932667	Z4	E242.8945449
G1	X100	Y110.5	Z4	E243.0455227
G1	X94.75	Y109.0932667	Z4	E243.1965004
G1	X90.90673326	Y105.25	Z4	E243.3474782
G1	X89.5	Y100	Z4	E243.498456
G1	X90.90673326	Y94.75	Z4	E243.6494338
G1	X94.75	Y90.90673326	Z4	E243.8004115
G1	X100	Y89.5	Z4	E243.9513893
G1	X105.25	Y90.90673326	Z4	E244.1023671
G1	X109.0932667	Y94.75	Z4	E244.2533449
G1	X111	Y100	Z4	E244.4084984
G1	X109.5262794	Y105.5	Z4	E244.5666656
G1	X105.5	Y109.5262794	Z4	E244.7248328
G1	X100	Y111	Z4	E244.883
G1	X94.5	Y109.5262794	Z4	E245.0411672
G1	X90.47372056	Y105.5	Z4	E245.1993344
G1	X89	Y100	Z4	E245.3575016
G1	X90.47372056	Y94.5	Z4	E245.5156688
G1	X94.5	Y90.47372056	Z4	E245.673836
G1	X100	Y89	Z4	E245.8320032
G1	X105.5	Y90.47372056	Z4	E245.9901704
G1	X109.5262794	Y94.5	Z4	E246.1483376
G1	X111.5	Y100	Z4	E246.3106548
G1	X109.9592921	Y105.75	Z4	E246.4760114
G1	X105.75	Y109.9592921	Z4	E246.6413681
G1	X100	Y111.5	Z4	E246.8067247
G1	X94.25	Y109.9592921	Z4	E246.9720813
G1	X90.04070786	Y105.75	Z4	E247.1374379
G1	X88.5	Y100	Z4	E247.3027945
G1	X90.04070786	Y94.25	Z4	E247.4681511
G1	X94.25	Y90.04070786	Z4	E247.6335077
G1	X100	Y88.5	Z4	E247.7988643
G1	X105.75	Y90.04070786	Z4	E247.964221
G1	X109.9592921	Y94.25	Z4	E248.1295776
G1	X112	Y100	Z4.5	E248.2990607
G1	X110.3923048	Y106	Z4.5	E248.4716067
G1	X106	Y110.3923048	Z4.5	E248.6441528
G1	X100	Y112	Z4.5	E248.8166988
G1	X94	Y110.3923048	Z4.5	E248.9892448
G1	X89.60769515	Y106	Z4.5	E249.1617908
G1	X88	Y100	Z4.5	E249.3343369
G1	X89.60769515	Y94	Z4.5	E249.5068829
G1	X94	Y89.60769515	Z4.5	E249.6794289
G1	X100	Y88	Z4.5	E249.851975
G1	X106	Y89.60769515	Z4.5	E250.024521
G1	X110.3923048	Y94	Z4.5	E250.197067
G1	X109	Y100	Z4.5	E250.3681622
G1	X107.7942286	Y104.5	Z4.5	E250.4975717
G1	X104.5	Y107.7942286	Z4.5	E250.6269812
G1	X100	Y109	Z4.5	E250.7563907
G1	X95.5	Y107.7942286	Z4.5	E250.8858002
G1	X92.20577137	Y104.5	Z4.5	E251.0152098
G1	X91	Y100	Z4.5	E251.1446193
G1	X92.20577137	Y95.5	Z4.5	E251.2740288
G1	X95.5	Y92.20577137	Z4.5	E251.4034383
G1	X100	Y91	Z4.5	E251.5328479
G1	X104.5	Y92.20577137	Z4.5	E251.6622574
G1	X107.7942286	Y95.5	Z4.5	E251.7916669
G1	X109.5	Y100	Z4.5	E251.925346
G1	X108.2272413	Y104.75	Z4.5	E252.061945
G1	X104.75	Y108.2272413	Z4.5	E252.1985439
G1	X100	Y109.5	Z4.5	E252.3351428
G1	X95.25	Y108.2272413	Z4.5	E252.4717418
G1	X91.77275866	Y104.75	Z4.5	E252.6083407
G1	X90.5	Y100	Z4.5	E252.7449397
G1	X91.77275866	Y95.25	Z4.5	E252.8815386
G1	X95.25	Y91.77275866	Z4.5	E253.0181375
G1	X100	Y90.5	Z4.5	E253.1547365
G1	X104.75	Y91.77275866	Z4.5	E253.2913354
G1	X108.2272413	Y95.25	Z4.5	E253.4279344
G1	X110	Y100	Z4.5	E253.5687684
G1	X108.660254	Y105	Z4.5	E253.7125568
G1	X105	Y108.660254	Z4.5	E253.8563452
G1	X100	Y110	Z4.5	E254.0001335
G1	X95	Y108.660254	Z4.5	E254.1439219
G1	X91.33974596	Y105	Z4.5	E254.2877102
G1	X90	Y100	Z4.5	E254.4314986
G1	X91.33974596	Y95	Z4.5	E254.5752869
G1	X95	Y91.33974596	Z4.5	E254.7190753
G1	X100	Y90	Z4.5	E254.8628637
G1	X105	Y91.33974596	Z4.5	E255.006652
G1	X108.660254	Y95	Z4.5	E255.1504404
G1	X110.5	Y100	Z4.5	E255.2984328
G1	X109.0932667	Y105.25	Z4.5	E255.4494105
G1	X105.25	Y109.0932667	Z4.5	E255.6003883
G1	X100	Y110.5	Z4.5	E255.7513661
G1	X94.75	Y109.0932667	Z4.5	E255.9023439
G1	X90.90673326	Y105.25	Z4.5	E256.0533217
G1	X89.5	Y100	Z4.5	E256.2042994
G1	X90.90673326	Y94.75	Z4.5	E256.3552772
G1	X94.75	Y90.90673326	Z4.5	E256.506255
G1	X100	Y89.5	Z4.5	E256.6572328
G1	X105.25	Y90.90673326	Z4.5	E256.8082105
G1	X109.0932667	Y94.75	Z4.5	E256.9591883
G1	X111	Y100	Z4.5	E257.1143419
G1	X109.5262794	Y105.5	Z4.5	E257.2725091
G1	X105.5	Y109.5262794	Z4.5	E257.4306763
G1	X100	Y111	Z4.5	E257.5888435
G1	X94.5	Y109.5262794	Z4.5	E257.7470107
G1	X90.47372056	Y105.5	Z4.5	E257.9051779
G1	X89	Y100	Z4.5	E258.0633451
G1	X90.47372056	Y94.5	Z4.5	E258.2215122
G1	X94.5	Y90.47372056	Z4.5	E258.3796794
G1	X100	Y89	Z4.5	E258.5378466
G1	X105.5	Y90.47372056	Z4.5	E258.6960138
G1	X109.5262794	Y94.5	Z4.5	E258.854181
G1	X111.5	Y100	Z4.5	E259.0164983
G1	X109.9592921	Y105.75	Z4.5	E259.1818549
G1	X105.75	Y109.9592921	Z4.5	E259.3472115
G1	X100	Y111.5	Z4.5	E259.5125681
G1	X94.25	Y109.9592921	Z4.5	E259.6779247
G1	X90.04070786	Y105.75	Z4.5	E259.8432813
G1	X88.5	Y100	Z4.5	E260.008638
G1	X90.04070786	Y94.25	Z4.5	E260.1739946
G1	X94.25	Y90.04070786	Z4.5	E260.3393512
G1	X100	Y88.5	Z4.5	E260.5047078
G1	X105.75	Y90.04070786	Z4.5	E260.6700644
G1	X109.9592921	Y94.25	Z4.5	E260.835421
G1	X112	Y100	Z5	E261.0049041
G1	X110.3923048	Y106	Z5	E261.1774502
G1	X106	Y110.3923048	Z5	E261.3499962
G1	X100	Y112	Z5	E261.5225422
G1	X94	Y110.3923048	Z5	E261.6950883
G1	X89.60769515	Y106	Z5	E261.8676343
G1	X88	Y100	Z5	E262.0401803
G1	X89.60769515	Y94	Z5	E262.2127264
G1	X94	Y89.60769515	Z5	E262.3852724
G1	X100	Y88	Z5	E262.5578184
G1	X106	Y89.60769515	Z5	E262.7303644
G1	X110.3923048	Y94	Z5	E262.9029105
G1	X109	Y100	Z5	E263.0740056
G1	X107.7942286	Y104.5	Z5	E263.2034151
G1	X104.5	Y107.7942286	Z5	E263.3328246
G1	X100	Y109	Z5	E263.4622342
G1	X95.5	Y107.7942286	Z5	E263.5916437
G1	X92.20577137	Y104.5	Z5	E263.7210532
G1	X91	Y100	Z5	E263.8504627
G1	X92.20577137	Y95.5	Z5	E263.9798723
G1	X95.5	Y92.20577137	Z5	E264.1092818
G1	X100	Y91	Z5	E264.2386913
G1	X104.5	Y92.20577137	Z5	E264.3681008
G1	X107.7942286	Y95.5	Z5	E264.4975103
G1	X109.5	Y100	Z5	E264.6311895
G1	X108.2272413	Y104.75	Z5	E264.7677884
G1	X104.75	Y108.2272413	Z5	E264.9043873
G1	X100	Y109.5	Z5	E265.0409863
G1	X95.25	Y108.2272413	Z5	E265.1775852
G1	X91.77275866	Y104.75	Z5	E265.3141842
G1	X90.5	Y100	Z5	E265.4507831
G1	X91.77275866	Y95.25	Z5	E265.587382
G1	X95.25	Y91.77275866	Z5	E265.723981
G1	X100	Y90.5	Z5	E265.8605799
G1	X104.75	Y91.77275866	Z5	E265.9971789
G1	X108.2272413	Y95.25	Z5	E266.1337778
G1	X110	Y100	Z5	E266.2746119
G1	X108.660254	Y105	Z5	E266.4184002
G1	X105	Y108.660254	Z5	E266.5621886
G1	X100	Y110	Z5	E266.705977
G1	X95	Y108.660254	Z5	E266.8497653
G1	X91.33974596	Y105	Z5	E266.9935537
G1	X90	Y100	Z5	E267.137342
G1	X91.33974596	Y95	Z5	E267.2811304
G1	X95	Y91.33974596	Z5	E267.4249188
G1	X100	Y90	Z5	E267.5687071
G1	X105	Y91.33974596	Z5	E267.7124955
G1	X108.660254	Y95	Z5	E267.8562838
G1	X110.5	Y100	Z5	E268.0042762
G1	X109.0932667	Y105.25	Z5	E268.155254
G1	X105.25	Y109.0932667	Z5	E268.3062318
G1	X100	Y110.5	Z5	E268.4572096
G1	X94.75	Y109.0932667	Z5	E268.6081873
G1	X90.90673326	Y105.25	Z5	E268.7591651
G1	X89.5	Y100	Z5	E268.9101429
G1	X90.90673326	Y94.75	Z5	E269.0611207
G1	X94.75	Y90.90673326	Z5	E269.2120984
G1	X100	Y89.5	Z5	E269.3630762
G1	X105.25	Y90.90673326	Z5	E269.514054
G1	X109.0932667	Y94.75	Z5	E269.6650318
G1	X111	Y100	Z5	E269.8201853
G1	X109.5262794	Y105.5	Z5	E269.9783525
G1	X105.5	Y109.5262794	Z5	E270.1365197
G1	X100	Y111	Z5	E270.2946869
G1	X94.5	Y109.5262794	Z5	E270.4528541
G1	X90.47372056	Y105.5	Z5	E270.6110213
G1	X89	Y100	Z5	E270.7691885
G1	X90.47372056	Y94.5	Z5	E270.9273557
G1	X94.5	Y90.47372056	Z5	E271.0855229
G1	X100	Y89	Z5	E271.2436901
G1	X105.5	Y90.47372056	Z5	E271.4018573
G1	X109.5262794	Y94.5	Z5	E271.5600245
G1	X111.5	Y100	Z5	E271.7223417
G1	X109.9592921	Y105.75	Z5	E271.8876983
G1	X105.75	Y109.9592921	Z5	E272.053055
G1	X100	Y111.5	Z5	E272.2184116
G1	X94.25	Y109.9592921	Z5	E272.3837682
G1	X90.04070786	Y105.75	Z5	E272.5491248
G1	X88.5	Y100	Z5	E272.7144814
G1	X90.04070786	Y94.25	Z5	E272.879838
G1	X94.25	Y90.04070786	Z5	E273.0451946
G1	X100	Y88.5	Z5	E273.2105512
G1	X105.75	Y90.04070786	Z5	E273.3759079
G1	X109.9592921	Y94.25	Z5	E273.5412645
G1	X112	Y100	Z5.5	E273.7107476
G1	X110.3923048	Y106	Z5.5	E273.8832936
G1	X106	Y110.3923048	Z5.5	E274.0558396
G1	X100	Y112	Z5.5	E274.2283857
G1	X94	Y110.3923048	Z5.5	E274.4009317
G1	X89.60769515	Y106	Z5.5	E274.5734777
G1	X88	Y100	Z5.5	E274.7460238
G1	X89.60769515	Y94	Z5.5	E274.9185698
G1	X94	Y89.60769515	Z5.5	E275.0911158
G1	X100	Y88	Z5.5	E275.2636619
G1	X106	Y89.60769515	Z5.5	E275.4362079
G1	X110.3923048	Y94	Z5.5	E275.6087539
G1	X109	Y100	Z5.5	E275.7798491
G1	X107.7942286	Y104.5	Z5.5	E275.9092586
G1	X104.5	Y107.7942286	Z5.5	E276.0386681
G1	X100	Y109	Z5.5	E276.1680776
G1	X95.5	Y107.7942286	Z5.5	E276.2974871
G1	X92.20577137	Y104.5	Z5.5	E276.4268967
G1	X91	Y100	Z5.5	E276.5563062
G1	X92.20577137	Y95.5	Z5.5	E276.6857157
G1	X95.5	Y92.20577137	Z5.5	E276.8151252
G1	X100	Y91	Z5.5	E276.9445348
G1	X104.5	Y92.20577137	Z5.5	E277.0739443
G1	X107.7942286	Y95.5	Z5.5	E277.2033538
G1	X109.5	Y100	Z5.5	E277.3370329
G1	X108.2272413	Y104.75	Z5.5	E277.4736319
G1	X104.75	Y108.2272413	Z5.5	E277.6102308
G1	X100	Y109.5	Z5.5	E277.7468297
G1	X95.25	Y108.2272413	Z5.5	E277.8834287
G1	X91.77275866	Y104.75	Z5.5	E278.0200276
G1	X90.5	Y100	Z5.5	E278.1566266
G1	X91.77275866	Y95.25	Z5.5	E278.2932255
G1	X95.25	Y91.77275866	Z5.5	E278.4298244
G1	X100	Y90.5	Z5.5	E278.5664234
G1	X104.75	Y91.77275866	Z5.5	E278.7030223
G1	X108.2272413	Y95.25	Z5.5	E278.8396213
G1	X110	Y100	Z5.5	E278.9804553
G1	X108.660254	Y105	Z5.5	E279.1242437
G1	X105	Y108.660254	Z5.5	E279.2680321
G1	X100	Y110	Z5.5	E279.4118204
G1	X95	Y108.660254	Z5.5	E279.5556088
G1	X91.33974596	Y105	Z5.5	E279.6993971
G1	X90	Y100	Z5.5	E279.8431855
G1	X91.33974596	Y95	Z5.5	E279.9869738
G1	X95	Y91.33974596	Z5.5	E280.1307622
G1	X100	Y90	Z5.5	E280.2745506
G1	X105	Y91.33974596	Z5.5	E280.4183389
G1	X108.660254	Y95	Z5.5	E280.5621273
G1	X110.5	Y100	Z5.5	E280.7101197
G1	X109.0932667	Y105.25	Z5.5	E280.8610974
G1	X105.25	Y109.0932667	Z5.5	E281.0120752
G1	X100	Y110.5	Z5.5	E281.163053
G1	X94.75	Y109.0932667	Z5.5	E281.3140308
G1	X90.90673326	Y105.25	Z5.5	E281.4650086
G1	X89.5	Y100	Z5.5	E281.6159863
G1	X90.90673326	Y94.75	Z5.5	E281.7669641
G1	X94.75	Y90.90673326	Z5.5	E281.9179419
G1	X100	Y89.5	Z5.5	E282.0689197
G1	X105.25	Y90.90673326	Z5.5	E282.2198974
G1	X109.0932667	Y94.75	Z5.5	E282.3708752
G1	X111	Y100	Z5.5	E282.5260288
G1	X109.5262794	Y105.5	Z5.5	E282.684196
G1	X105.5	Y109.5262794	Z5.5	E282.8423632
G1	X100	Y111	Z5.5	E283.0005304
G1	X94.5	Y109.5262794	Z5.5	E283.1586976
G1	X90.47372056	Y105.5	Z5.5	E283.3168648
G1	X89	Y100	Z5.5	E283.475032
G1	X90.47372056	Y94.5	Z5.5	E283.6331991
G1	X94.5	Y90.47372056	Z5.5	E283.7913663
G1	X100	Y89	Z5.5	E283.9495335
G1	X105.5	Y90.47372056	Z5.5	E284.1077007
G1	X109.5262794	Y94.5	Z5.5	E284.2658679
G1	X111.5	Y100	Z5.5	E284.4281852
G1	X109.9592921	Y105.75	Z5.5	E284.5935418
G1	X105.75	Y109.9592921	Z5.5	E284.7588984
G1	X100	Y111.5	Z5.5	E284.924255
G1	X94.25	Y109.9592921	Z5.5	E285.0896116
G1	X90.04070786	Y105.75	Z5.5	E285.2549682
G1	X88.5	Y100	Z5.5	E285.4203249
G1	X90.04070786	Y94.25	Z5.5	E285.5856815
G1	X94.25	Y90.04070786	Z5.5	E285.7510381
G1	X100	Y88.5	Z5.5	E285.9163947
G1	X105.75	Y90.04070786	Z5.5	E286.0817513
G1	X109.9592921	Y94.25	Z5.5	E286.2471079
G1	X112	Y100	Z6	E286.416591
G1	X110.3923048	Y106	Z6	E286.5891371
G1	X106	Y110.3923048	Z6	E286.7616831
G1	X100	Y112	Z6	E286.9342291
G1	X94	Y110.3923048	Z6	E287.1067752
G1	X89.60769515	Y106	Z6	E287.2793212
G1	X88	Y100	Z6	E287.4518672
G1	X89.60769515	Y94	Z6	E287.6244132
G1	X94	Y89.60769515	Z6	E287.7969593
G1	X100	Y88	Z6	E287.9695053
G1	X106	Y89.60769515	Z6	E288.1420513
G1	X110.3923048	Y94	Z6	E288.3145974
G1	X109	Y100	Z6	E288.4856925
G1	X107.7942286	Y104.5	Z6	E288.615102
G1	X104.5	Y107.7942286	Z6	E288.7445115
G1	X100	Y109	Z6	E288.8739211
G1	X95.5	Y107.7942286	Z6	E289.0033306
G1	X92.20577137	Y104.5	Z6	E289.1327401
G1	X91	Y100	Z6	E289.2621496
G1	X92.20577137	Y95.5	Z6	E289.3915592
G1	X95.5	Y92.20577137	Z6	E289.5209687
G1	X100	Y91	Z6	E289.6503782
G1	X104.5	Y92.20577137	Z6	E289.7797877
G1	X107.7942286	Y95.5	Z6	E289.9091972
G1	X109.5	Y100	Z6	E290.0428764
G1	X108.2272413	Y104.75	Z6	E290.1794753
G1	X104.75	Y108.2272413	Z6	E290.3160742
G1	X100	Y109.5	Z6	E290.4526732
G1	X95.25	Y108.2272413	Z6	E290.5892721
G1	X91.77275866	Y104.75	Z6	E290.7258711
G1	X90.5	Y100	Z6	E290.86247
G1	X91.77275866	Y95.25	Z6	E290.9990689
G1	X95.25	Y91.77275866	Z6	E291.1356679
G1	X100	Y90.5	Z6	E291.2722668
G1	X104.75	Y91.77275866	Z6	E291.4088658
G1	X108.2272413	Y95.25	Z6	E291.5454647
G1	X110	Y100	Z6	E291.6862988
G1	X108.660254	Y105	Z6	E291.8300871
G1	X105	Y108.660254	Z6	E291.9738755
G1	X100	Y110	Z6	E292.1176639
G1	X95	Y108.660254	Z6	E292.2614522
G1	X91.33974596	Y105	Z6	E292.4052406
G1	X90	Y100	Z6	E292.5490289
G1	X91.33974596	Y95	Z6	E292.6928173
G1	X95	Y91.33974596	Z6	E292.8366057
G1	X100	Y90	Z6	E292.980394
G1	X105	Y91.33974596	Z6	E293.1241824
G1	X108.660254	Y95	Z6	E293.2679707
G1	X110.5	Y100	Z6	E293.4159631
G1	X109.0932667	Y105.25	Z6	E293.5669409
G1	X105.25	Y109.0932667	Z6	E293.7179187
G1	X100	Y110.5	Z6	E293.8688964
G1	X94.75	Y109.0932667	Z6	E294.0198742
G1	X90.90673326	Y105.25	Z6	E294.170852
G1	X89.5	Y100	Z6	E294.3218298
G1	X90.90673326	Y94.75	Z6	E294.4728076
G1	X94.75	Y90.90673326	Z6	E294.6237853
G1	X100	Y89.5	Z6	E294.7747631
G1	X105.25	Y90.90673326	Z6	E294.9257409
G1	X109.0932667	Y94.75	Z6	E295.0767187
G1	X111	Y100	Z6	E295.2318722
G1	X109.5262794	Y105.5	Z6	E295.3900394
G1	X105.5	Y109.5262794	Z6	E295.5482066
G1	X100	Y111	Z6	E295.7063738
G1	X94.5	Y109.5262794	Z6	E295.864541
G1	X90.47372056	Y105.5	Z6	E296.0227082
G1	X89	Y100	Z6	E296.1808754
G1	X90.47372056	Y94.5	Z6	E296.3390426
G1	X94.5	Y90.47372056	Z6	E296.4972098
G1	X100	Y89	Z6	E296.655377
G1	X105.5	Y90.47372056	Z6	E296.8135442
G1	X109.5262794	Y94.5	Z6	E296.9717114
G1	X111.5	Y100	Z6	E297.1340286
G1	X109.9592921	Y105.75	Z6	E297.2993852
G1	X105.75	Y109.9592921	Z6	E297.4647419
G1	X100	Y111.5	Z6	E297.6300985
G1	X94.25	Y109.9592921	Z6	E297.7954551
G1	X90.04070786	Y105.75	Z6	E297.9608117
G1	X88.5	Y100	Z6	E298.1261683
G1	X90.04070786	Y94.25	Z6	E298.2915249
G1	X94.25	Y90.04070786	Z6	E298.4568815
G1	X100	Y88.5	Z6	E298.6222381
G1	X105.75	Y90.04070786	Z6	E298.7875948
G1	X109.9592921	Y94.25	Z6	E298.9529514
G1	X	Y	Z	E
G1	X112	Y100	Z6.5	E299.1224345
G1	X110.3923048	Y106	Z6.5	E299.2949805
G1	X106	Y110.3923048	Z6.5	E299.4675265
G1	X100	Y112	Z6.5	E299.6400726
G1	X94	Y110.3923048	Z6.5	E299.8126186
G1	X89.60769515	Y106	Z6.5	E299.9851646
G1	X88	Y100	Z6.5	E300.1577107
G1	X89.60769515	Y94	Z6.5	E300.3302567
G1	X94	Y89.60769515	Z6.5	E300.5028027
G1	X100	Y88	Z6.5	E300.6753488
G1	X106	Y89.60769515	Z6.5	E300.8478948
G1	X110.3923048	Y94	Z6.5	E301.0204408
G1	X109	Y100	Z6.5	E301.1915359
G1	X107.7942286	Y104.5	Z6.5	E301.3209455
G1	X104.5	Y107.7942286	Z6.5	E301.450355
G1	X100	Y109	Z6.5	E301.5797645
G1	X95.5	Y107.7942286	Z6.5	E301.709174
G1	X92.20577137	Y104.5	Z6.5	E301.8385836
G1	X91	Y100	Z6.5	E301.9679931
G1	X92.20577137	Y95.5	Z6.5	E302.0974026
G1	X95.5	Y92.20577137	Z6.5	E302.2268121
G1	X100	Y91	Z6.5	E302.3562217
G1	X104.5	Y92.20577137	Z6.5	E302.4856312
G1	X107.7942286	Y95.5	Z6.5	E302.6150407
G1	X109.5	Y100	Z6.5	E302.7487198
G1	X108.2272413	Y104.75	Z6.5	E302.8853187
G1	X104.75	Y108.2272413	Z6.5	E303.0219177
G1	X100	Y109.5	Z6.5	E303.1585166
G1	X95.25	Y108.2272413	Z6.5	E303.2951156
G1	X91.77275866	Y104.75	Z6.5	E303.4317145
G1	X90.5	Y100	Z6.5	E303.5683135
G1	X91.77275866	Y95.25	Z6.5	E303.7049124
G1	X95.25	Y91.77275866	Z6.5	E303.8415113
G1	X100	Y90.5	Z6.5	E303.9781103
G1	X104.75	Y91.77275866	Z6.5	E304.1147092
G1	X108.2272413	Y95.25	Z6.5	E304.2513082
G1	X110	Y100	Z6.5	E304.3921422
G1	X108.660254	Y105	Z6.5	E304.5359306
G1	X105	Y108.660254	Z6.5	E304.679719
G1	X100	Y110	Z6.5	E304.8235073
G1	X95	Y108.660254	Z6.5	E304.9672957
G1	X91.33974596	Y105	Z6.5	E305.111084
G1	X90	Y100	Z6.5	E305.2548724
G1	X91.33974596	Y95	Z6.5	E305.3986607
G1	X95	Y91.33974596	Z6.5	E305.5424491
G1	X100	Y90	Z6.5	E305.6862375
G1	X105	Y91.33974596	Z6.5	E305.8300258
G1	X108.660254	Y95	Z6.5	E305.9738142
G1	X110.5	Y100	Z6.5	E306.1218066
G1	X109.0932667	Y105.25	Z6.5	E306.2727843
G1	X105.25	Y109.0932667	Z6.5	E306.4237621
G1	X100	Y110.5	Z6.5	E306.5747399
G1	X94.75	Y109.0932667	Z6.5	E306.7257177
G1	X90.90673326	Y105.25	Z6.5	E306.8766954
G1	X89.5	Y100	Z6.5	E307.0276732
G1	X90.90673326	Y94.75	Z6.5	E307.178651
G1	X94.75	Y90.90673326	Z6.5	E307.3296288
G1	X100	Y89.5	Z6.5	E307.4806066
G1	X105.25	Y90.90673326	Z6.5	E307.6315843
G1	X109.0932667	Y94.75	Z6.5	E307.7825621
G1	X111	Y100	Z6.5	E307.9377157
G1	X109.5262794	Y105.5	Z6.5	E308.0958829
G1	X105.5	Y109.5262794	Z6.5	E308.2540501
G1	X100	Y111	Z6.5	E308.4122173
G1	X94.5	Y109.5262794	Z6.5	E308.5703845
G1	X90.47372056	Y105.5	Z6.5	E308.7285517
G1	X89	Y100	Z6.5	E308.8867188
G1	X90.47372056	Y94.5	Z6.5	E309.044886
G1	X94.5	Y90.47372056	Z6.5	E309.2030532
G1	X100	Y89	Z6.5	E309.3612204
G1	X105.5	Y90.47372056	Z6.5	E309.5193876
G1	X109.5262794	Y94.5	Z6.5	E309.6775548
G1	X111.5	Y100	Z6.5	E309.8398721
G1	X109.9592921	Y105.75	Z6.5	E310.0052287
G1	X105.75	Y109.9592921	Z6.5	E310.1705853
G1	X100	Y111.5	Z6.5	E310.3359419
G1	X94.25	Y109.9592921	Z6.5	E310.5012985
G1	X90.04070786	Y105.75	Z6.5	E310.6666551
G1	X88.5	Y100	Z6.5	E310.8320118
G1	X90.04070786	Y94.25	Z6.5	E310.9973684
G1	X94.25	Y90.04070786	Z6.5	E311.162725
G1	X100	Y88.5	Z6.5	E311.3280816
G1	X105.75	Y90.04070786	Z6.5	E311.4934382
G1	X109.9592921	Y94.25	Z6.5	E311.6587948
G1	X112	Y100	Z7	E311.8282779
G1	X110.3923048	Y106	Z7	E312.000824
G1	X106	Y110.3923048	Z7	E312.17337
G1	X100	Y112	Z7	E312.345916
G1	X94	Y110.3923048	Z7	E312.5184621
G1	X89.60769515	Y106	Z7	E312.6910081
G1	X88	Y100	Z7	E312.8635541
G1	X89.60769515	Y94	Z7	E313.0361001
G1	X94	Y89.60769515	Z7	E313.2086462
G1	X100	Y88	Z7	E313.3811922
G1	X106	Y89.60769515	Z7	E313.5537382
G1	X110.3923048	Y94	Z7	E313.7262843
G1	X109	Y100	Z7	E313.8973794
G1	X107.7942286	Y104.5	Z7	E314.0267889
G1	X104.5	Y107.7942286	Z7	E314.1561984
G1	X100	Y109	Z7	E314.285608
G1	X95.5	Y107.7942286	Z7	E314.4150175
G1	X92.20577137	Y104.5	Z7	E314.544427
G1	X91	Y100	Z7	E314.6738365
G1	X92.20577137	Y95.5	Z7	E314.8032461
G1	X95.5	Y92.20577137	Z7	E314.9326556
G1	X100	Y91	Z7	E315.0620651
G1	X104.5	Y92.20577137	Z7	E315.1914746
G1	X107.7942286	Y95.5	Z7	E315.3208841
G1	X109.5	Y100	Z7	E315.4545633
G1	X108.2272413	Y104.75	Z7	E315.5911622
G1	X104.75	Y108.2272413	Z7	E315.7277611
G1	X100	Y109.5	Z7	E315.8643601
G1	X95.25	Y108.2272413	Z7	E316.000959
G1	X91.77275866	Y104.75	Z7	E316.137558
G1	X90.5	Y100	Z7	E316.2741569
G1	X91.77275866	Y95.25	Z7	E316.4107558
G1	X95.25	Y91.77275866	Z7	E316.5473548
G1	X100	Y90.5	Z7	E316.6839537
G1	X104.75	Y91.77275866	Z7	E316.8205527
G1	X108.2272413	Y95.25	Z7	E316.9571516
G1	X110	Y100	Z7	E317.0979857
G1	X108.660254	Y105	Z7	E317.241774
G1	X105	Y108.660254	Z7	E317.3855624
G1	X100	Y110	Z7	E317.5293508
G1	X95	Y108.660254	Z7	E317.6731391
G1	X91.33974596	Y105	Z7	E317.8169275
G1	X90	Y100	Z7	E317.9607158
G1	X91.33974596	Y95	Z7	E318.1045042
G1	X95	Y91.33974596	Z7	E318.2482926
G1	X100	Y90	Z7	E318.3920809
G1	X105	Y91.33974596	Z7	E318.5358693
G1	X108.660254	Y95	Z7	E318.6796576
G1	X110.5	Y100	Z7	E318.82765
G1	X109.0932667	Y105.25	Z7	E318.9786278
G1	X105.25	Y109.0932667	Z7	E319.1296056
G1	X100	Y110.5	Z7	E319.2805833
G1	X94.75	Y109.0932667	Z7	E319.4315611
G1	X90.90673326	Y105.25	Z7	E319.5825389
G1	X89.5	Y100	Z7	E319.7335167
G1	X90.90673326	Y94.75	Z7	E319.8844945
G1	X94.75	Y90.90673326	Z7	E320.0354722
G1	X100	Y89.5	Z7	E320.18645
G1	X105.25	Y90.90673326	Z7	E320.3374278
G1	X109.0932667	Y94.75	Z7	E320.4884056
G1	X111	Y100	Z7	E320.6435591
G1	X109.5262794	Y105.5	Z7	E320.8017263
G1	X105.5	Y109.5262794	Z7	E320.9598935
G1	X100	Y111	Z7	E321.1180607
G1	X94.5	Y109.5262794	Z7	E321.2762279
G1	X90.47372056	Y105.5	Z7	E321.4343951
G1	X89	Y100	Z7	E321.5925623
G1	X90.47372056	Y94.5	Z7	E321.7507295
G1	X94.5	Y90.47372056	Z7	E321.9088967
G1	X100	Y89	Z7	E322.0670639
G1	X105.5	Y90.47372056	Z7	E322.2252311
G1	X109.5262794	Y94.5	Z7	E322.3833983
G1	X111.5	Y100	Z7	E322.5457155
G1	X109.9592921	Y105.75	Z7	E322.7110721
G1	X105.75	Y109.9592921	Z7	E322.8764288
G1	X100	Y111.5	Z7	E323.0417854
G1	X94.25	Y109.9592921	Z7	E323.207142
G1	X90.04070786	Y105.75	Z7	E323.3724986
G1	X88.5	Y100	Z7	E323.5378552
G1	X90.04070786	Y94.25	Z7	E323.7032118
G1	X94.25	Y90.04070786	Z7	E323.8685684
G1	X100	Y88.5	Z7	E324.033925
G1	X105.75	Y90.04070786	Z7	E324.1992817
G1	X109.9592921	Y94.25	Z7	E324.3646383
G1	X	Y	Z	E
G1	X112	Y100	Z7.5	E324.5341214
G1	X110.3923048	Y106	Z7.5	E324.7066674
G1	X106	Y110.3923048	Z7.5	E324.8792134
G1	X100	Y112	Z7.5	E325.0517595
G1	X94	Y110.3923048	Z7.5	E325.2243055
G1	X89.60769515	Y106	Z7.5	E325.3968515
G1	X88	Y100	Z7.5	E325.5693976
G1	X89.60769515	Y94	Z7.5	E325.7419436
G1	X94	Y89.60769515	Z7.5	E325.9144896
G1	X100	Y88	Z7.5	E326.0870357
G1	X106	Y89.60769515	Z7.5	E326.2595817
G1	X110.3923048	Y94	Z7.5	E326.4321277
G1	X109	Y100	Z7.5	E326.6032228
G1	X107.7942286	Y104.5	Z7.5	E326.7326324
G1	X104.5	Y107.7942286	Z7.5	E326.8620419
G1	X100	Y109	Z7.5	E326.9914514
G1	X95.5	Y107.7942286	Z7.5	E327.1208609
G1	X92.20577137	Y104.5	Z7.5	E327.2502705
G1	X91	Y100	Z7.5	E327.37968
G1	X92.20577137	Y95.5	Z7.5	E327.5090895
G1	X95.5	Y92.20577137	Z7.5	E327.638499
G1	X100	Y91	Z7.5	E327.7679085
G1	X104.5	Y92.20577137	Z7.5	E327.8973181
G1	X107.7942286	Y95.5	Z7.5	E328.0267276
G1	X109.5	Y100	Z7.5	E328.1604067
G1	X108.2272413	Y104.75	Z7.5	E328.2970056
G1	X104.75	Y108.2272413	Z7.5	E328.4336046
G1	X100	Y109.5	Z7.5	E328.5702035
G1	X95.25	Y108.2272413	Z7.5	E328.7068025
G1	X91.77275866	Y104.75	Z7.5	E328.8434014
G1	X90.5	Y100	Z7.5	E328.9800003
G1	X91.77275866	Y95.25	Z7.5	E329.1165993
G1	X95.25	Y91.77275866	Z7.5	E329.2531982
G1	X100	Y90.5	Z7.5	E329.3897972
G1	X104.75	Y91.77275866	Z7.5	E329.5263961
G1	X108.2272413	Y95.25	Z7.5	E329.662995
G1	X110	Y100	Z7.5	E329.8038291
G1	X108.660254	Y105	Z7.5	E329.9476175
G1	X105	Y108.660254	Z7.5	E330.0914058
G1	X100	Y110	Z7.5	E330.2351942
G1	X95	Y108.660254	Z7.5	E330.3789826
G1	X91.33974596	Y105	Z7.5	E330.5227709
G1	X90	Y100	Z7.5	E330.6665593
G1	X91.33974596	Y95	Z7.5	E330.8103476
G1	X95	Y91.33974596	Z7.5	E330.954136
G1	X100	Y90	Z7.5	E331.0979244
G1	X105	Y91.33974596	Z7.5	E331.2417127
G1	X108.660254	Y95	Z7.5	E331.3855011
G1	X110.5	Y100	Z7.5	E331.5334935
G1	X109.0932667	Y105.25	Z7.5	E331.6844712
G1	X105.25	Y109.0932667	Z7.5	E331.835449
G1	X100	Y110.5	Z7.5	E331.9864268
G1	X94.75	Y109.0932667	Z7.5	E332.1374046
G1	X90.90673326	Y105.25	Z7.5	E332.2883823
G1	X89.5	Y100	Z7.5	E332.4393601
G1	X90.90673326	Y94.75	Z7.5	E332.5903379
G1	X94.75	Y90.90673326	Z7.5	E332.7413157
G1	X100	Y89.5	Z7.5	E332.8922935
G1	X105.25	Y90.90673326	Z7.5	E333.0432712
G1	X109.0932667	Y94.75	Z7.5	E333.194249
G1	X111	Y100	Z7.5	E333.3494026
G1	X109.5262794	Y105.5	Z7.5	E333.5075698
G1	X105.5	Y109.5262794	Z7.5	E333.665737
G1	X100	Y111	Z7.5	E333.8239042
G1	X94.5	Y109.5262794	Z7.5	E333.9820714
G1	X90.47372056	Y105.5	Z7.5	E334.1402386
G1	X89	Y100	Z7.5	E334.2984057
G1	X90.47372056	Y94.5	Z7.5	E334.4565729
G1	X94.5	Y90.47372056	Z7.5	E334.6147401
G1	X100	Y89	Z7.5	E334.7729073
G1	X105.5	Y90.47372056	Z7.5	E334.9310745
G1	X109.5262794	Y94.5	Z7.5	E335.0892417
G1	X111.5	Y100	Z7.5	E335.251559
G1	X109.9592921	Y105.75	Z7.5	E335.4169156
G1	X105.75	Y109.9592921	Z7.5	E335.5822722
G1	X100	Y111.5	Z7.5	E335.7476288
G1	X94.25	Y109.9592921	Z7.5	E335.9129854
G1	X90.04070786	Y105.75	Z7.5	E336.078342
G1	X88.5	Y100	Z7.5	E336.2436987
G1	X90.04070786	Y94.25	Z7.5	E336.4090553
G1	X94.25	Y90.04070786	Z7.5	E336.5744119
G1	X100	Y88.5	Z7.5	E336.7397685
G1	X105.75	Y90.04070786	Z7.5	E336.9051251
G1	X109.9592921	Y94.25	Z7.5	E337.0704817
G1	X112	Y100	Z8	E337.2399648
G1	X110.3923048	Y106	Z8	E337.4125109
G1	X106	Y110.3923048	Z8	E337.5850569
G1	X100	Y112	Z8	E337.7576029
G1	X94	Y110.3923048	Z8	E337.930149
G1	X89.60769515	Y106	Z8	E338.102695
G1	X88	Y100	Z8	E338.275241
G1	X89.60769515	Y94	Z8	E338.447787
G1	X94	Y89.60769515	Z8	E338.6203331
G1	X100	Y88	Z8	E338.7928791
G1	X106	Y89.60769515	Z8	E338.9654251
G1	X110.3923048	Y94	Z8	E339.1379712
G1	X109	Y100	Z8	E339.3090663
G1	X107.7942286	Y104.5	Z8	E339.4384758
G1	X104.5	Y107.7942286	Z8	E339.5678853
G1	X100	Y109	Z8	E339.6972949
G1	X95.5	Y107.7942286	Z8	E339.8267044
G1	X92.20577137	Y104.5	Z8	E339.9561139
G1	X91	Y100	Z8	E340.0855234
G1	X92.20577137	Y95.5	Z8	E340.214933
G1	X95.5	Y92.20577137	Z8	E340.3443425
G1	X100	Y91	Z8	E340.473752
G1	X104.5	Y92.20577137	Z8	E340.6031615
G1	X107.7942286	Y95.5	Z8	E340.732571
G1	X109.5	Y100	Z8	E340.8662502
G1	X108.2272413	Y104.75	Z8	E341.0028491
G1	X104.75	Y108.2272413	Z8	E341.139448
G1	X100	Y109.5	Z8	E341.276047
G1	X95.25	Y108.2272413	Z8	E341.4126459
G1	X91.77275866	Y104.75	Z8	E341.5492449
G1	X90.5	Y100	Z8	E341.6858438
G1	X91.77275866	Y95.25	Z8	E341.8224427
G1	X95.25	Y91.77275866	Z8	E341.9590417
G1	X100	Y90.5	Z8	E342.0956406
G1	X104.75	Y91.77275866	Z8	E342.2322396
G1	X108.2272413	Y95.25	Z8	E342.3688385
G1	X110	Y100	Z8	E342.5096726
G1	X108.660254	Y105	Z8	E342.6534609
G1	X105	Y108.660254	Z8	E342.7972493
G1	X100	Y110	Z8	E342.9410377
G1	X95	Y108.660254	Z8	E343.084826
G1	X91.33974596	Y105	Z8	E343.2286144
G1	X90	Y100	Z8	E343.3724027
G1	X91.33974596	Y95	Z8	E343.5161911
G1	X95	Y91.33974596	Z8	E343.6599794
G1	X100	Y90	Z8	E343.8037678
G1	X105	Y91.33974596	Z8	E343.9475562
G1	X108.660254	Y95	Z8	E344.0913445
G1	X110.5	Y100	Z8	E344.2393369
G1	X109.0932667	Y105.25	Z8	E344.3903147
G1	X105.25	Y109.0932667	Z8	E344.5412925
G1	X100	Y110.5	Z8	E344.6922702
G1	X94.75	Y109.0932667	Z8	E344.843248
G1	X90.90673326	Y105.25	Z8	E344.9942258
G1	X89.5	Y100	Z8	E345.1452036
G1	X90.90673326	Y94.75	Z8	E345.2961813
G1	X94.75	Y90.90673326	Z8	E345.4471591
G1	X100	Y89.5	Z8	E345.5981369
G1	X105.25	Y90.90673326	Z8	E345.7491147
G1	X109.0932667	Y94.75	Z8	E345.9000925
G1	X111	Y100	Z8	E346.055246
G1	X109.5262794	Y105.5	Z8	E346.2134132
G1	X105.5	Y109.5262794	Z8	E346.3715804
G1	X100	Y111	Z8	E346.5297476
G1	X94.5	Y109.5262794	Z8	E346.6879148
G1	X90.47372056	Y105.5	Z8	E346.846082
G1	X89	Y100	Z8	E347.0042492
G1	X90.47372056	Y94.5	Z8	E347.1624164
G1	X94.5	Y90.47372056	Z8	E347.3205836
G1	X100	Y89	Z8	E347.4787508
G1	X105.5	Y90.47372056	Z8	E347.636918
G1	X109.5262794	Y94.5	Z8	E347.7950852
G1	X111.5	Y100	Z8	E347.9574024
G1	X109.9592921	Y105.75	Z8	E348.122759
G1	X105.75	Y109.9592921	Z8	E348.2881157
G1	X100	Y111.5	Z8	E348.4534723
G1	X94.25	Y109.9592921	Z8	E348.6188289
G1	X90.04070786	Y105.75	Z8	E348.7841855
G1	X88.5	Y100	Z8	E348.9495421
G1	X90.04070786	Y94.25	Z8	E349.1148987
G1	X94.25	Y90.04070786	Z8	E349.2802553
G1	X100	Y88.5	Z8	E349.4456119
G1	X105.75	Y90.04070786	Z8	E349.6109685
G1	X109.9592921	Y94.25	Z8	E349.7763252
G1	X112	Y100	Z8.5	E349.9458083
G1	X110.3923048	Y106	Z8.5	E350.1183543
G1	X106	Y110.3923048	Z8.5	E350.2909003
G1	X100	Y112	Z8.5	E350.4634464
G1	X94	Y110.3923048	Z8.5	E350.6359924
G1	X89.60769515	Y106	Z8.5	E350.8085384
G1	X88	Y100	Z8.5	E350.9810845
G1	X89.60769515	Y94	Z8.5	E351.1536305
G1	X94	Y89.60769515	Z8.5	E351.3261765
G1	X100	Y88	Z8.5	E351.4987226
G1	X106	Y89.60769515	Z8.5	E351.6712686
G1	X110.3923048	Y94	Z8.5	E351.8438146
G1	X109	Y100	Z8.5	E352.0149097
G1	X107.7942286	Y104.5	Z8.5	E352.1443193
G1	X104.5	Y107.7942286	Z8.5	E352.2737288
G1	X100	Y109	Z8.5	E352.4031383
G1	X95.5	Y107.7942286	Z8.5	E352.5325478
G1	X92.20577137	Y104.5	Z8.5	E352.6619574
G1	X91	Y100	Z8.5	E352.7913669
G1	X92.20577137	Y95.5	Z8.5	E352.9207764
G1	X95.5	Y92.20577137	Z8.5	E353.0501859
G1	X100	Y91	Z8.5	E353.1795954
G1	X104.5	Y92.20577137	Z8.5	E353.309005
G1	X107.7942286	Y95.5	Z8.5	E353.4384145
G1	X109.5	Y100	Z8.5	E353.5720936
G1	X108.2272413	Y104.75	Z8.5	E353.7086925
G1	X104.75	Y108.2272413	Z8.5	E353.8452915
G1	X100	Y109.5	Z8.5	E353.9818904
G1	X95.25	Y108.2272413	Z8.5	E354.1184894
G1	X91.77275866	Y104.75	Z8.5	E354.2550883
G1	X90.5	Y100	Z8.5	E354.3916872
G1	X91.77275866	Y95.25	Z8.5	E354.5282862
G1	X95.25	Y91.77275866	Z8.5	E354.6648851
G1	X100	Y90.5	Z8.5	E354.8014841
G1	X104.75	Y91.77275866	Z8.5	E354.938083
G1	X108.2272413	Y95.25	Z8.5	E355.0746819
G1	X110	Y100	Z8.5	E355.215516
G1	X108.660254	Y105	Z8.5	E355.3593044
G1	X105	Y108.660254	Z8.5	E355.5030927
G1	X100	Y110	Z8.5	E355.6468811
G1	X95	Y108.660254	Z8.5	E355.7906695
G1	X91.33974596	Y105	Z8.5	E355.9344578
G1	X90	Y100	Z8.5	E356.0782462
G1	X91.33974596	Y95	Z8.5	E356.2220345
G1	X95	Y91.33974596	Z8.5	E356.3658229
G1	X100	Y90	Z8.5	E356.5096113
G1	X105	Y91.33974596	Z8.5	E356.6533996
G1	X108.660254	Y95	Z8.5	E356.797188
G1	X110.5	Y100	Z8.5	E356.9451804
G1	X109.0932667	Y105.25	Z8.5	E357.0961581
G1	X105.25	Y109.0932667	Z8.5	E357.2471359
G1	X100	Y110.5	Z8.5	E357.3981137
G1	X94.75	Y109.0932667	Z8.5	E357.5490915
G1	X90.90673326	Y105.25	Z8.5	E357.7000692
G1	X89.5	Y100	Z8.5	E357.851047
G1	X90.90673326	Y94.75	Z8.5	E358.0020248
G1	X94.75	Y90.90673326	Z8.5	E358.1530026
G1	X100	Y89.5	Z8.5	E358.3039803
G1	X105.25	Y90.90673326	Z8.5	E358.4549581
G1	X109.0932667	Y94.75	Z8.5	E358.6059359
G1	X111	Y100	Z8.5	E358.7610895
G1	X109.5262794	Y105.5	Z8.5	E358.9192567
G1	X105.5	Y109.5262794	Z8.5	E359.0774239
G1	X100	Y111	Z8.5	E359.2355911
G1	X94.5	Y109.5262794	Z8.5	E359.3937583
G1	X90.47372056	Y105.5	Z8.5	E359.5519255
G1	X89	Y100	Z8.5	E359.7100926
G1	X90.47372056	Y94.5	Z8.5	E359.8682598
G1	X94.5	Y90.47372056	Z8.5	E360.026427
G1	X100	Y89	Z8.5	E360.1845942
G1	X105.5	Y90.47372056	Z8.5	E360.3427614
G1	X109.5262794	Y94.5	Z8.5	E360.5009286
G1	X111.5	Y100	Z8.5	E360.6632459
G1	X109.9592921	Y105.75	Z8.5	E360.8286025
G1	X105.75	Y109.9592921	Z8.5	E360.9939591
G1	X100	Y111.5	Z8.5	E361.1593157
G1	X94.25	Y109.9592921	Z8.5	E361.3246723
G1	X90.04070786	Y105.75	Z8.5	E361.4900289
G1	X88.5	Y100	Z8.5	E361.6553855
G1	X90.04070786	Y94.25	Z8.5	E361.8207422
G1	X94.25	Y90.04070786	Z8.5	E361.9860988
G1	X100	Y88.5	Z8.5	E362.1514554
G1	X105.75	Y90.04070786	Z8.5	E362.316812
G1	X109.9592921	Y94.25	Z8.5	E362.4821686
G1	X112	Y100	Z9	E362.6516517
G1	X110.3923048	Y106	Z9	E362.8241978
G1	X106	Y110.3923048	Z9	E362.9967438
G1	X100	Y112	Z9	E363.1692898
G1	X94	Y110.3923048	Z9	E363.3418358
G1	X89.60769515	Y106	Z9	E363.5143819
G1	X88	Y100	Z9	E363.6869279
G1	X89.60769515	Y94	Z9	E363.8594739
G1	X94	Y89.60769515	Z9	E364.03202
G1	X100	Y88	Z9	E364.204566
G1	X106	Y89.60769515	Z9	E364.377112
G1	X110.3923048	Y94	Z9	E364.5496581
G1	X109	Y100	Z9	E364.7207532
G1	X107.7942286	Y104.5	Z9	E364.8501627
G1	X104.5	Y107.7942286	Z9	E364.9795722
G1	X100	Y109	Z9	E365.1089818
G1	X95.5	Y107.7942286	Z9	E365.2383913
G1	X92.20577137	Y104.5	Z9	E365.3678008
G1	X91	Y100	Z9	E365.4972103
G1	X92.20577137	Y95.5	Z9	E365.6266198
G1	X95.5	Y92.20577137	Z9	E365.7560294
G1	X100	Y91	Z9	E365.8854389
G1	X104.5	Y92.20577137	Z9	E366.0148484
G1	X107.7942286	Y95.5	Z9	E366.1442579
G1	X109.5	Y100	Z9	E366.2779371
G1	X108.2272413	Y104.75	Z9	E366.414536
G1	X104.75	Y108.2272413	Z9	E366.5511349
G1	X100	Y109.5	Z9	E366.6877339
G1	X95.25	Y108.2272413	Z9	E366.8243328
G1	X91.77275866	Y104.75	Z9	E366.9609318
G1	X90.5	Y100	Z9	E367.0975307
G1	X91.77275866	Y95.25	Z9	E367.2341296
G1	X95.25	Y91.77275866	Z9	E367.3707286
G1	X100	Y90.5	Z9	E367.5073275
G1	X104.75	Y91.77275866	Z9	E367.6439265
G1	X108.2272413	Y95.25	Z9	E367.7805254
G1	X110	Y100	Z9	E367.9213595
G1	X108.660254	Y105	Z9	E368.0651478
G1	X105	Y108.660254	Z9	E368.2089362
G1	X100	Y110	Z9	E368.3527246
G1	X95	Y108.660254	Z9	E368.4965129
G1	X91.33974596	Y105	Z9	E368.6403013
G1	X90	Y100	Z9	E368.7840896
G1	X91.33974596	Y95	Z9	E368.927878
G1	X95	Y91.33974596	Z9	E369.0716663
G1	X100	Y90	Z9	E369.2154547
G1	X105	Y91.33974596	Z9	E369.3592431
G1	X108.660254	Y95	Z9	E369.5030314
G1	X110.5	Y100	Z9	E369.6510238
G1	X109.0932667	Y105.25	Z9	E369.8020016
G1	X105.25	Y109.0932667	Z9	E369.9529794
G1	X100	Y110.5	Z9	E370.1039571
G1	X94.75	Y109.0932667	Z9	E370.2549349
G1	X90.90673326	Y105.25	Z9	E370.4059127
G1	X89.5	Y100	Z9	E370.5568905
G1	X90.90673326	Y94.75	Z9	E370.7078682
G1	X94.75	Y90.90673326	Z9	E370.858846
G1	X100	Y89.5	Z9	E371.0098238
G1	X105.25	Y90.90673326	Z9	E371.1608016
G1	X109.0932667	Y94.75	Z9	E371.3117794
G1	X111	Y100	Z9	E371.4669329
G1	X109.5262794	Y105.5	Z9	E371.6251001
G1	X105.5	Y109.5262794	Z9	E371.7832673
G1	X100	Y111	Z9	E371.9414345
G1	X94.5	Y109.5262794	Z9	E372.0996017
G1	X90.47372056	Y105.5	Z9	E372.2577689
G1	X89	Y100	Z9	E372.4159361
G1	X90.47372056	Y94.5	Z9	E372.5741033
G1	X94.5	Y90.47372056	Z9	E372.7322705
G1	X100	Y89	Z9	E372.8904377
G1	X105.5	Y90.47372056	Z9	E373.0486049
G1	X109.5262794	Y94.5	Z9	E373.2067721
G1	X111.5	Y100	Z9	E373.3690893
G1	X109.9592921	Y105.75	Z9	E373.5344459
G1	X105.75	Y109.9592921	Z9	E373.6998025
G1	X100	Y111.5	Z9	E373.8651592
G1	X94.25	Y109.9592921	Z9	E374.0305158
G1	X90.04070786	Y105.75	Z9	E374.1958724
G1	X88.5	Y100	Z9	E374.361229
G1	X90.04070786	Y94.25	Z9	E374.5265856
G1	X94.25	Y90.04070786	Z9	E374.6919422
G1	X100	Y88.5	Z9	E374.8572988
G1	X105.75	Y90.04070786	Z9	E375.0226554
G1	X109.9592921	Y94.25	Z9	E375.1880121
G1	X112	Y100	Z9.5	E375.3574952
G1	X110.3923048	Y106	Z9.5	E375.5300412
G1	X106	Y110.3923048	Z9.5	E375.7025872
G1	X100	Y112	Z9.5	E375.8751333
G1	X94	Y110.3923048	Z9.5	E376.0476793
G1	X89.60769515	Y106	Z9.5	E376.2202253
G1	X88	Y100	Z9.5	E376.3927714
G1	X89.60769515	Y94	Z9.5	E376.5653174
G1	X94	Y89.60769515	Z9.5	E376.7378634
G1	X100	Y88	Z9.5	E376.9104094
G1	X106	Y89.60769515	Z9.5	E377.0829555
G1	X110.3923048	Y94	Z9.5	E377.2555015
G1	X109	Y100	Z9.5	E377.4265966
G1	X107.7942286	Y104.5	Z9.5	E377.5560062
G1	X104.5	Y107.7942286	Z9.5	E377.6854157
G1	X100	Y109	Z9.5	E377.8148252
G1	X95.5	Y107.7942286	Z9.5	E377.9442347
G1	X92.20577137	Y104.5	Z9.5	E378.0736443
G1	X91	Y100	Z9.5	E378.2030538
G1	X92.20577137	Y95.5	Z9.5	E378.3324633
G1	X95.5	Y92.20577137	Z9.5	E378.4618728
G1	X100	Y91	Z9.5	E378.5912823
G1	X104.5	Y92.20577137	Z9.5	E378.7206919
G1	X107.7942286	Y95.5	Z9.5	E378.8501014
G1	X109.5	Y100	Z9.5	E378.9837805
G1	X108.2272413	Y104.75	Z9.5	E379.1203794
G1	X104.75	Y108.2272413	Z9.5	E379.2569784
G1	X100	Y109.5	Z9.5	E379.3935773
G1	X95.25	Y108.2272413	Z9.5	E379.5301763
G1	X91.77275866	Y104.75	Z9.5	E379.6667752
G1	X90.5	Y100	Z9.5	E379.8033741
G1	X91.77275866	Y95.25	Z9.5	E379.9399731
G1	X95.25	Y91.77275866	Z9.5	E380.076572
G1	X100	Y90.5	Z9.5	E380.213171
G1	X104.75	Y91.77275866	Z9.5	E380.3497699
G1	X108.2272413	Y95.25	Z9.5	E380.4863688
G1	X110	Y100	Z9.5	E380.6272029
G1	X108.660254	Y105	Z9.5	E380.7709913
G1	X105	Y108.660254	Z9.5	E380.9147796
G1	X100	Y110	Z9.5	E381.058568
G1	X95	Y108.660254	Z9.5	E381.2023564
G1	X91.33974596	Y105	Z9.5	E381.3461447
G1	X90	Y100	Z9.5	E381.4899331
G1	X91.33974596	Y95	Z9.5	E381.6337214
G1	X95	Y91.33974596	Z9.5	E381.7775098
G1	X100	Y90	Z9.5	E381.9212982
G1	X105	Y91.33974596	Z9.5	E382.0650865
G1	X108.660254	Y95	Z9.5	E382.2088749
G1	X110.5	Y100	Z9.5	E382.3568673
G1	X109.0932667	Y105.25	Z9.5	E382.507845
G1	X105.25	Y109.0932667	Z9.5	E382.6588228
G1	X100	Y110.5	Z9.5	E382.8098006
G1	X94.75	Y109.0932667	Z9.5	E382.9607784
G1	X90.90673326	Y105.25	Z9.5	E383.1117561
G1	X89.5	Y100	Z9.5	E383.2627339
G1	X90.90673326	Y94.75	Z9.5	E383.4137117
G1	X94.75	Y90.90673326	Z9.5	E383.5646895
G1	X100	Y89.5	Z9.5	E383.7156672
G1	X105.25	Y90.90673326	Z9.5	E383.866645
G1	X109.0932667	Y94.75	Z9.5	E384.0176228
G1	X111	Y100	Z9.5	E384.1727764
G1	X109.5262794	Y105.5	Z9.5	E384.3309436
G1	X105.5	Y109.5262794	Z9.5	E384.4891108
G1	X100	Y111	Z9.5	E384.647278
G1	X94.5	Y109.5262794	Z9.5	E384.8054452
G1	X90.47372056	Y105.5	Z9.5	E384.9636123
G1	X89	Y100	Z9.5	E385.1217795
G1	X90.47372056	Y94.5	Z9.5	E385.2799467
G1	X94.5	Y90.47372056	Z9.5	E385.4381139
G1	X100	Y89	Z9.5	E385.5962811
G1	X105.5	Y90.47372056	Z9.5	E385.7544483
G1	X109.5262794	Y94.5	Z9.5	E385.9126155
G1	X111.5	Y100	Z9.5	E386.0749328
G1	X109.9592921	Y105.75	Z9.5	E386.2402894
G1	X105.75	Y109.9592921	Z9.5	E386.405646
G1	X100	Y111.5	Z9.5	E386.5710026
G1	X94.25	Y109.9592921	Z9.5	E386.7363592
G1	X90.04070786	Y105.75	Z9.5	E386.9017158
G1	X88.5	Y100	Z9.5	E387.0670724
G1	X90.04070786	Y94.25	Z9.5	E387.2324291
G1	X94.25	Y90.04070786	Z9.5	E387.3977857
G1	X100	Y88.5	Z9.5	E387.5631423
G1	X105.75	Y90.04070786	Z9.5	E387.7284989
G1	X109.9592921	Y94.25	Z9.5	E387.8938555
G1	X	Y	Z	E
G1	X112	Y100	Z10	E388.0633386
G1	X110.3923048	Y106	Z10	E388.2358847
G1	X106	Y110.3923048	Z10	E388.4084307
G1	X100	Y112	Z10	E388.5809767
G1	X94	Y110.3923048	Z10	E388.7535227
G1	X89.60769515	Y106	Z10	E388.9260688
G1	X88	Y100	Z10	E389.0986148
G1	X89.60769515	Y94	Z10	E389.2711608
G1	X94	Y89.60769515	Z10	E389.4437069
G1	X100	Y88	Z10	E389.6162529
G1	X106	Y89.60769515	Z10	E389.7887989
G1	X110.3923048	Y94	Z10	E389.961345
G1	X109	Y100	Z10	E390.1324401
G1	X107.7942286	Y104.5	Z10	E390.2618496
G1	X104.5	Y107.7942286	Z10	E390.3912591
G1	X100	Y109	Z10	E390.5206687
G1	X95.5	Y107.7942286	Z10	E390.6500782
G1	X92.20577137	Y104.5	Z10	E390.7794877
G1	X91	Y100	Z10	E390.9088972
G1	X92.20577137	Y95.5	Z10	E391.0383067
G1	X95.5	Y92.20577137	Z10	E391.1677163
G1	X100	Y91	Z10	E391.2971258
G1	X104.5	Y92.20577137	Z10	E391.4265353
G1	X107.7942286	Y95.5	Z10	E391.5559448
G1	X109.5	Y100	Z10	E391.6896239
G1	X108.2272413	Y104.75	Z10	E391.8262229
G1	X104.75	Y108.2272413	Z10	E391.9628218
G1	X100	Y109.5	Z10	E392.0994208
G1	X95.25	Y108.2272413	Z10	E392.2360197
G1	X91.77275866	Y104.75	Z10	E392.3726187
G1	X90.5	Y100	Z10	E392.5092176
G1	X91.77275866	Y95.25	Z10	E392.6458165
G1	X95.25	Y91.77275866	Z10	E392.7824155
G1	X100	Y90.5	Z10	E392.9190144
G1	X104.75	Y91.77275866	Z10	E393.0556134
G1	X108.2272413	Y95.25	Z10	E393.1922123
G1	X110	Y100	Z10	E393.3330464
G1	X108.660254	Y105	Z10	E393.4768347
G1	X105	Y108.660254	Z10	E393.6206231
G1	X100	Y110	Z10	E393.7644115
G1	X95	Y108.660254	Z10	E393.9081998
G1	X91.33974596	Y105	Z10	E394.0519882
G1	X90	Y100	Z10	E394.1957765
G1	X91.33974596	Y95	Z10	E394.3395649
G1	X95	Y91.33974596	Z10	E394.4833532
G1	X100	Y90	Z10	E394.6271416
G1	X105	Y91.33974596	Z10	E394.77093
G1	X108.660254	Y95	Z10	E394.9147183
G1	X110.5	Y100	Z10	E395.0627107
G1	X109.0932667	Y105.25	Z10	E395.2136885
G1	X105.25	Y109.0932667	Z10	E395.3646663
G1	X100	Y110.5	Z10	E395.515644
G1	X94.75	Y109.0932667	Z10	E395.6666218
G1	X90.90673326	Y105.25	Z10	E395.8175996
G1	X89.5	Y100	Z10	E395.9685774
G1	X90.90673326	Y94.75	Z10	E396.1195551
G1	X94.75	Y90.90673326	Z10	E396.2705329
G1	X100	Y89.5	Z10	E396.4215107
G1	X105.25	Y90.90673326	Z10	E396.5724885
G1	X109.0932667	Y94.75	Z10	E396.7234662
G1	X111	Y100	Z10	E396.8786198
G1	X109.5262794	Y105.5	Z10	E397.036787
G1	X105.5	Y109.5262794	Z10	E397.1949542
G1	X100	Y111	Z10	E397.3531214
G1	X94.5	Y109.5262794	Z10	E397.5112886
G1	X90.47372056	Y105.5	Z10	E397.6694558
G1	X89	Y100	Z10	E397.827623
G1	X90.47372056	Y94.5	Z10	E397.9857902
G1	X94.5	Y90.47372056	Z10	E398.1439574
G1	X100	Y89	Z10	E398.3021246
G1	X105.5	Y90.47372056	Z10	E398.4602918
G1	X109.5262794	Y94.5	Z10	E398.618459
G1	X111.5	Y100	Z10	E398.7807762
G1	X109.9592921	Y105.75	Z10	E398.9461328
G1	X105.75	Y109.9592921	Z10	E399.1114894
G1	X100	Y111.5	Z10	E399.2768461
G1	X94.25	Y109.9592921	Z10	E399.4422027
G1	X90.04070786	Y105.75	Z10	E399.6075593
G1	X88.5	Y100	Z10	E399.7729159
G1	X90.04070786	Y94.25	Z10	E399.9382725
G1	X94.25	Y90.04070786	Z10	E400.1036291
G1	X100	Y88.5	Z10	E400.2689857
G1	X105.75	Y90.04070786	Z10	E400.4343423
G1	X109.9592921	Y94.25	Z10	E400.599699
G1	X112	Y100	Z10.5	E400.7691821
G1	X110.3923048	Y106	Z10.5	E400.9417281
G1	X106	Y110.3923048	Z10.5	E401.1142741
G1	X100	Y112	Z10.5	E401.2868202
G1	X94	Y110.3923048	Z10.5	E401.4593662
G1	X89.60769515	Y106	Z10.5	E401.6319122
G1	X88	Y100	Z10.5	E401.8044583
G1	X89.60769515	Y94	Z10.5	E401.9770043
G1	X94	Y89.60769515	Z10.5	E402.1495503
G1	X100	Y88	Z10.5	E402.3220963
G1	X106	Y89.60769515	Z10.5	E402.4946424
G1	X110.3923048	Y94	Z10.5	E402.6671884
G1	X109	Y100	Z10.5	E402.8382835
G1	X107.7942286	Y104.5	Z10.5	E402.9676931
G1	X104.5	Y107.7942286	Z10.5	E403.0971026
G1	X100	Y109	Z10.5	E403.2265121
G1	X95.5	Y107.7942286	Z10.5	E403.3559216
G1	X92.20577137	Y104.5	Z10.5	E403.4853311
G1	X91	Y100	Z10.5	E403.6147407
G1	X92.20577137	Y95.5	Z10.5	E403.7441502
G1	X95.5	Y92.20577137	Z10.5	E403.8735597
G1	X100	Y91	Z10.5	E404.0029692
G1	X104.5	Y92.20577137	Z10.5	E404.1323788
G1	X107.7942286	Y95.5	Z10.5	E404.2617883
G1	X109.5	Y100	Z10.5	E404.3954674
G1	X108.2272413	Y104.75	Z10.5	E404.5320663
G1	X104.75	Y108.2272413	Z10.5	E404.6686653
G1	X100	Y109.5	Z10.5	E404.8052642
G1	X95.25	Y108.2272413	Z10.5	E404.9418632
G1	X91.77275866	Y104.75	Z10.5	E405.0784621
G1	X90.5	Y100	Z10.5	E405.215061
G1	X91.77275866	Y95.25	Z10.5	E405.35166
G1	X95.25	Y91.77275866	Z10.5	E405.4882589
G1	X100	Y90.5	Z10.5	E405.6248579
G1	X104.75	Y91.77275866	Z10.5	E405.7614568
G1	X108.2272413	Y95.25	Z10.5	E405.8980557
G1	X110	Y100	Z10.5	E406.0388898
G1	X108.660254	Y105	Z10.5	E406.1826782
G1	X105	Y108.660254	Z10.5	E406.3264665
G1	X100	Y110	Z10.5	E406.4702549
G1	X95	Y108.660254	Z10.5	E406.6140433
G1	X91.33974596	Y105	Z10.5	E406.7578316
G1	X90	Y100	Z10.5	E406.90162
G1	X91.33974596	Y95	Z10.5	E407.0454083
G1	X95	Y91.33974596	Z10.5	E407.1891967
G1	X100	Y90	Z10.5	E407.332985
G1	X105	Y91.33974596	Z10.5	E407.4767734
G1	X108.660254	Y95	Z10.5	E407.6205618
G1	X110.5	Y100	Z10.5	E407.7685542
G1	X109.0932667	Y105.25	Z10.5	E407.9195319
G1	X105.25	Y109.0932667	Z10.5	E408.0705097
G1	X100	Y110.5	Z10.5	E408.2214875
G1	X94.75	Y109.0932667	Z10.5	E408.3724653
G1	X90.90673326	Y105.25	Z10.5	E408.523443
G1	X89.5	Y100	Z10.5	E408.6744208
G1	X90.90673326	Y94.75	Z10.5	E408.8253986
G1	X94.75	Y90.90673326	Z10.5	E408.9763764
G1	X100	Y89.5	Z10.5	E409.1273541
G1	X105.25	Y90.90673326	Z10.5	E409.2783319
G1	X109.0932667	Y94.75	Z10.5	E409.4293097
G1	X111	Y100	Z10.5	E409.5844633
G1	X109.5262794	Y105.5	Z10.5	E409.7426305
G1	X105.5	Y109.5262794	Z10.5	E409.9007977
G1	X100	Y111	Z10.5	E410.0589649
G1	X94.5	Y109.5262794	Z10.5	E410.2171321
G1	X90.47372056	Y105.5	Z10.5	E410.3752992
G1	X89	Y100	Z10.5	E410.5334664
G1	X90.47372056	Y94.5	Z10.5	E410.6916336
G1	X94.5	Y90.47372056	Z10.5	E410.8498008
G1	X100	Y89	Z10.5	E411.007968
G1	X105.5	Y90.47372056	Z10.5	E411.1661352
G1	X109.5262794	Y94.5	Z10.5	E411.3243024
G1	X111.5	Y100	Z10.5	E411.4866197
G1	X109.9592921	Y105.75	Z10.5	E411.6519763
G1	X105.75	Y109.9592921	Z10.5	E411.8173329
G1	X100	Y111.5	Z10.5	E411.9826895
G1	X94.25	Y109.9592921	Z10.5	E412.1480461
G1	X90.04070786	Y105.75	Z10.5	E412.3134027
G1	X88.5	Y100	Z10.5	E412.4787593
G1	X90.04070786	Y94.25	Z10.5	E412.644116
G1	X94.25	Y90.04070786	Z10.5	E412.8094726
G1	X100	Y88.5	Z10.5	E412.9748292
G1	X105.75	Y90.04070786	Z10.5	E413.1401858
G1	X109.9592921	Y94.25	Z10.5	E413.3055424
G1	X112	Y100	Z11	E413.4750255
G1	X110.3923048	Y106	Z11	E413.6475716
G1	X106	Y110.3923048	Z11	E413.8201176
G1	X100	Y112	Z11	E413.9926636
G1	X94	Y110.3923048	Z11	E414.1652096
G1	X89.60769515	Y106	Z11	E414.3377557
G1	X88	Y100	Z11	E414.5103017
G1	X89.60769515	Y94	Z11	E414.6828477
G1	X94	Y89.60769515	Z11	E414.8553938
G1	X100	Y88	Z11	E415.0279398
G1	X106	Y89.60769515	Z11	E415.2004858
G1	X110.3923048	Y94	Z11	E415.3730319
G1	X109	Y100	Z11	E415.544127
G1	X107.7942286	Y104.5	Z11	E415.6735365
G1	X104.5	Y107.7942286	Z11	E415.802946
G1	X100	Y109	Z11	E415.9323556
G1	X95.5	Y107.7942286	Z11	E416.0617651
G1	X92.20577137	Y104.5	Z11	E416.1911746
G1	X91	Y100	Z11	E416.3205841
G1	X92.20577137	Y95.5	Z11	E416.4499936
G1	X95.5	Y92.20577137	Z11	E416.5794032
G1	X100	Y91	Z11	E416.7088127
G1	X104.5	Y92.20577137	Z11	E416.8382222
G1	X107.7942286	Y95.5	Z11	E416.9676317
G1	X109.5	Y100	Z11	E417.1013108
G1	X108.2272413	Y104.75	Z11	E417.2379098
G1	X104.75	Y108.2272413	Z11	E417.3745087
G1	X100	Y109.5	Z11	E417.5111077
G1	X95.25	Y108.2272413	Z11	E417.6477066
G1	X91.77275866	Y104.75	Z11	E417.7843055
G1	X90.5	Y100	Z11	E417.9209045
G1	X91.77275866	Y95.25	Z11	E418.0575034
G1	X95.25	Y91.77275866	Z11	E418.1941024
G1	X100	Y90.5	Z11	E418.3307013
G1	X104.75	Y91.77275866	Z11	E418.4673002
G1	X108.2272413	Y95.25	Z11	E418.6038992
G1	X110	Y100	Z11	E418.7447333
G1	X108.660254	Y105	Z11	E418.8885216
G1	X105	Y108.660254	Z11	E419.03231
G1	X100	Y110	Z11	E419.1760983
G1	X95	Y108.660254	Z11	E419.3198867
G1	X91.33974596	Y105	Z11	E419.4636751
G1	X90	Y100	Z11	E419.6074634
G1	X91.33974596	Y95	Z11	E419.7512518
G1	X95	Y91.33974596	Z11	E419.8950401
G1	X100	Y90	Z11	E420.0388285
G1	X105	Y91.33974596	Z11	E420.1826169
G1	X108.660254	Y95	Z11	E420.3264052
G1	X110.5	Y100	Z11	E420.4743976
G1	X109.0932667	Y105.25	Z11	E420.6253754
G1	X105.25	Y109.0932667	Z11	E420.7763532
G1	X100	Y110.5	Z11	E420.9273309
G1	X94.75	Y109.0932667	Z11	E421.0783087
G1	X90.90673326	Y105.25	Z11	E421.2292865
G1	X89.5	Y100	Z11	E421.3802643
G1	X90.90673326	Y94.75	Z11	E421.531242
G1	X94.75	Y90.90673326	Z11	E421.6822198
G1	X100	Y89.5	Z11	E421.8331976
G1	X105.25	Y90.90673326	Z11	E421.9841754
G1	X109.0932667	Y94.75	Z11	E422.1351531
G1	X111	Y100	Z11	E422.2903067
G1	X109.5262794	Y105.5	Z11	E422.4484739
G1	X105.5	Y109.5262794	Z11	E422.6066411
G1	X100	Y111	Z11	E422.7648083
G1	X94.5	Y109.5262794	Z11	E422.9229755
G1	X90.47372056	Y105.5	Z11	E423.0811427
G1	X89	Y100	Z11	E423.2393099
G1	X90.47372056	Y94.5	Z11	E423.3974771
G1	X94.5	Y90.47372056	Z11	E423.5556443
G1	X100	Y89	Z11	E423.7138115
G1	X105.5	Y90.47372056	Z11	E423.8719787
G1	X109.5262794	Y94.5	Z11	E424.0301459
G1	X111.5	Y100	Z11	E424.1924631
G1	X109.9592921	Y105.75	Z11	E424.3578197
G1	X105.75	Y109.9592921	Z11	E424.5231763
G1	X100	Y111.5	Z11	E424.688533
G1	X94.25	Y109.9592921	Z11	E424.8538896
G1	X90.04070786	Y105.75	Z11	E425.0192462
G1	X88.5	Y100	Z11	E425.1846028
G1	X90.04070786	Y94.25	Z11	E425.3499594
G1	X94.25	Y90.04070786	Z11	E425.515316
G1	X100	Y88.5	Z11	E425.6806726
G1	X105.75	Y90.04070786	Z11	E425.8460292
G1	X109.9592921	Y94.25	Z11	E426.0113859
G1	X112	Y100	Z11.5	E426.180869
G1	X110.3923048	Y106	Z11.5	E426.353415
G1	X106	Y110.3923048	Z11.5	E426.525961
G1	X100	Y112	Z11.5	E426.6985071
G1	X94	Y110.3923048	Z11.5	E426.8710531
G1	X89.60769515	Y106	Z11.5	E427.0435991
G1	X88	Y100	Z11.5	E427.2161452
G1	X89.60769515	Y94	Z11.5	E427.3886912
G1	X94	Y89.60769515	Z11.5	E427.5612372
G1	X100	Y88	Z11.5	E427.7337832
G1	X106	Y89.60769515	Z11.5	E427.9063293
G1	X110.3923048	Y94	Z11.5	E428.0788753
G1	X109	Y100	Z11.5	E428.2499704
G1	X107.7942286	Y104.5	Z11.5	E428.37938
G1	X104.5	Y107.7942286	Z11.5	E428.5087895
G1	X100	Y109	Z11.5	E428.638199
G1	X95.5	Y107.7942286	Z11.5	E428.7676085
G1	X92.20577137	Y104.5	Z11.5	E428.897018
G1	X91	Y100	Z11.5	E429.0264276
G1	X92.20577137	Y95.5	Z11.5	E429.1558371
G1	X95.5	Y92.20577137	Z11.5	E429.2852466
G1	X100	Y91	Z11.5	E429.4146561
G1	X104.5	Y92.20577137	Z11.5	E429.5440657
G1	X107.7942286	Y95.5	Z11.5	E429.6734752
G1	X109.5	Y100	Z11.5	E429.8071543
G1	X108.2272413	Y104.75	Z11.5	E429.9437532
G1	X104.75	Y108.2272413	Z11.5	E430.0803522
G1	X100	Y109.5	Z11.5	E430.2169511
G1	X95.25	Y108.2272413	Z11.5	E430.3535501
G1	X91.77275866	Y104.75	Z11.5	E430.490149
G1	X90.5	Y100	Z11.5	E430.6267479
G1	X91.77275866	Y95.25	Z11.5	E430.7633469
G1	X95.25	Y91.77275866	Z11.5	E430.8999458
G1	X100	Y90.5	Z11.5	E431.0365448
G1	X104.75	Y91.77275866	Z11.5	E431.1731437
G1	X108.2272413	Y95.25	Z11.5	E431.3097426
G1	X110	Y100	Z11.5	E431.4505767
G1	X108.660254	Y105	Z11.5	E431.5943651
G1	X105	Y108.660254	Z11.5	E431.7381534
G1	X100	Y110	Z11.5	E431.8819418
G1	X95	Y108.660254	Z11.5	E432.0257302
G1	X91.33974596	Y105	Z11.5	E432.1695185
G1	X90	Y100	Z11.5	E432.3133069
G1	X91.33974596	Y95	Z11.5	E432.4570952
G1	X95	Y91.33974596	Z11.5	E432.6008836
G1	X100	Y90	Z11.5	E432.7446719
G1	X105	Y91.33974596	Z11.5	E432.8884603
G1	X108.660254	Y95	Z11.5	E433.0322487
G1	X110.5	Y100	Z11.5	E433.1802411
G1	X109.0932667	Y105.25	Z11.5	E433.3312188
G1	X105.25	Y109.0932667	Z11.5	E433.4821966
G1	X100	Y110.5	Z11.5	E433.6331744
G1	X94.75	Y109.0932667	Z11.5	E433.7841522
G1	X90.90673326	Y105.25	Z11.5	E433.9351299
G1	X89.5	Y100	Z11.5	E434.0861077
G1	X90.90673326	Y94.75	Z11.5	E434.2370855
G1	X94.75	Y90.90673326	Z11.5	E434.3880633
G1	X100	Y89.5	Z11.5	E434.539041
G1	X105.25	Y90.90673326	Z11.5	E434.6900188
G1	X109.0932667	Y94.75	Z11.5	E434.8409966
G1	X111	Y100	Z11.5	E434.9961502
G1	X109.5262794	Y105.5	Z11.5	E435.1543174
G1	X105.5	Y109.5262794	Z11.5	E435.3124846
G1	X100	Y111	Z11.5	E435.4706518
G1	X94.5	Y109.5262794	Z11.5	E435.6288189
G1	X90.47372056	Y105.5	Z11.5	E435.7869861
G1	X89	Y100	Z11.5	E435.9451533
G1	X90.47372056	Y94.5	Z11.5	E436.1033205
G1	X94.5	Y90.47372056	Z11.5	E436.2614877
G1	X100	Y89	Z11.5	E436.4196549
G1	X105.5	Y90.47372056	Z11.5	E436.5778221
G1	X109.5262794	Y94.5	Z11.5	E436.7359893
G1	X111.5	Y100	Z11.5	E436.8983066
G1	X109.9592921	Y105.75	Z11.5	E437.0636632
G1	X105.75	Y109.9592921	Z11.5	E437.2290198
G1	X100	Y111.5	Z11.5	E437.3943764
G1	X94.25	Y109.9592921	Z11.5	E437.559733
G1	X90.04070786	Y105.75	Z11.5	E437.7250896
G1	X88.5	Y100	Z11.5	E437.8904462
G1	X90.04070786	Y94.25	Z11.5	E438.0558029
G1	X94.25	Y90.04070786	Z11.5	E438.2211595
G1	X100	Y88.5	Z11.5	E438.3865161
G1	X105.75	Y90.04070786	Z11.5	E438.5518727
G1	X109.9592921	Y94.25	Z11.5	E438.7172293
G1	X112	Y100	Z12	E438.8867124
G1	X110.3923048	Y106	Z12	E439.0592585
G1	X106	Y110.3923048	Z12	E439.2318045
G1	X100	Y112	Z12	E439.4043505
G1	X94	Y110.3923048	Z12	E439.5768965
G1	X89.60769515	Y106	Z12	E439.7494426
G1	X88	Y100	Z12	E439.9219886
G1	X89.60769515	Y94	Z12	E440.0945346
G1	X94	Y89.60769515	Z12	E440.2670807
G1	X100	Y88	Z12	E440.4396267
G1	X106	Y89.60769515	Z12	E440.6121727
G1	X110.3923048	Y94	Z12	E440.7847188
G1	X109	Y100	Z12	E440.9558139
G1	X107.7942286	Y104.5	Z12	E441.0852234
G1	X104.5	Y107.7942286	Z12	E441.2146329
G1	X100	Y109	Z12	E441.3440425
G1	X95.5	Y107.7942286	Z12	E441.473452
G1	X92.20577137	Y104.5	Z12	E441.6028615
G1	X91	Y100	Z12	E441.732271
G1	X92.20577137	Y95.5	Z12	E441.8616805
G1	X95.5	Y92.20577137	Z12	E441.9910901
G1	X100	Y91	Z12	E442.1204996
G1	X104.5	Y92.20577137	Z12	E442.2499091
G1	X107.7942286	Y95.5	Z12	E442.3793186
G1	X109.5	Y100	Z12	E442.5129977
G1	X108.2272413	Y104.75	Z12	E442.6495967
G1	X104.75	Y108.2272413	Z12	E442.7861956
G1	X100	Y109.5	Z12	E442.9227946
G1	X95.25	Y108.2272413	Z12	E443.0593935
G1	X91.77275866	Y104.75	Z12	E443.1959924
G1	X90.5	Y100	Z12	E443.3325914
G1	X91.77275866	Y95.25	Z12	E443.4691903
G1	X95.25	Y91.77275866	Z12	E443.6057893
G1	X100	Y90.5	Z12	E443.7423882
G1	X104.75	Y91.77275866	Z12	E443.8789871
G1	X108.2272413	Y95.25	Z12	E444.0155861
G1	X110	Y100	Z12	E444.1564202
G1	X108.660254	Y105	Z12	E444.3002085
G1	X105	Y108.660254	Z12	E444.4439969
G1	X100	Y110	Z12	E444.5877852
G1	X95	Y108.660254	Z12	E444.7315736
G1	X91.33974596	Y105	Z12	E444.875362
G1	X90	Y100	Z12	E445.0191503
G1	X91.33974596	Y95	Z12	E445.1629387
G1	X95	Y91.33974596	Z12	E445.306727
G1	X100	Y90	Z12	E445.4505154
G1	X105	Y91.33974596	Z12	E445.5943038
G1	X108.660254	Y95	Z12	E445.7380921
G1	X110.5	Y100	Z12	E445.8860845
G1	X109.0932667	Y105.25	Z12	E446.0370623
G1	X105.25	Y109.0932667	Z12	E446.1880401
G1	X100	Y110.5	Z12	E446.3390178
G1	X94.75	Y109.0932667	Z12	E446.4899956
G1	X90.90673326	Y105.25	Z12	E446.6409734
G1	X89.5	Y100	Z12	E446.7919512
G1	X90.90673326	Y94.75	Z12	E446.9429289
G1	X94.75	Y90.90673326	Z12	E447.0939067
G1	X100	Y89.5	Z12	E447.2448845
G1	X105.25	Y90.90673326	Z12	E447.3958623
G1	X109.0932667	Y94.75	Z12	E447.54684
G1	X111	Y100	Z12	E447.7019936
G1	X109.5262794	Y105.5	Z12	E447.8601608
G1	X105.5	Y109.5262794	Z12	E448.018328
G1	X100	Y111	Z12	E448.1764952
G1	X94.5	Y109.5262794	Z12	E448.3346624
G1	X90.47372056	Y105.5	Z12	E448.4928296
G1	X89	Y100	Z12	E448.6509968
G1	X90.47372056	Y94.5	Z12	E448.809164
G1	X94.5	Y90.47372056	Z12	E448.9673312
G1	X100	Y89	Z12	E449.1254984
G1	X105.5	Y90.47372056	Z12	E449.2836656
G1	X109.5262794	Y94.5	Z12	E449.4418328
G1	X111.5	Y100	Z12	E449.60415
G1	X109.9592921	Y105.75	Z12	E449.7695066
G1	X105.75	Y109.9592921	Z12	E449.9348632
G1	X100	Y111.5	Z12	E450.1002199
G1	X94.25	Y109.9592921	Z12	E450.2655765
G1	X90.04070786	Y105.75	Z12	E450.4309331
G1	X88.5	Y100	Z12	E450.5962897
G1	X90.04070786	Y94.25	Z12	E450.7616463
G1	X94.25	Y90.04070786	Z12	E450.9270029
G1	X100	Y88.5	Z12	E451.0923595
G1	X105.75	Y90.04070786	Z12	E451.2577161
G1	X109.9592921	Y94.25	Z12	E451.4230727
G1	X	Y	Z	E
G1	X112	Y100	Z12.5	E451.5925559
G1	X110.3923048	Y106	Z12.5	E451.7651019
G1	X106	Y110.3923048	Z12.5	E451.9376479
G1	X100	Y112	Z12.5	E452.110194
G1	X94	Y110.3923048	Z12.5	E452.28274
G1	X89.60769515	Y106	Z12.5	E452.455286
G1	X88	Y100	Z12.5	E452.627832
G1	X89.60769515	Y94	Z12.5	E452.8003781
G1	X94	Y89.60769515	Z12.5	E452.9729241
G1	X100	Y88	Z12.5	E453.1454701
G1	X106	Y89.60769515	Z12.5	E453.3180162
G1	X110.3923048	Y94	Z12.5	E453.4905622
G1	X109	Y100	Z12.5	E453.6616573
G1	X107.7942286	Y104.5	Z12.5	E453.7910669
G1	X104.5	Y107.7942286	Z12.5	E453.9204764
G1	X100	Y109	Z12.5	E454.0498859
G1	X95.5	Y107.7942286	Z12.5	E454.1792954
G1	X92.20577137	Y104.5	Z12.5	E454.3087049
G1	X91	Y100	Z12.5	E454.4381145
G1	X92.20577137	Y95.5	Z12.5	E454.567524
G1	X95.5	Y92.20577137	Z12.5	E454.6969335
G1	X100	Y91	Z12.5	E454.826343
G1	X104.5	Y92.20577137	Z12.5	E454.9557526
G1	X107.7942286	Y95.5	Z12.5	E455.0851621
G1	X109.5	Y100	Z12.5	E455.2188412
G1	X108.2272413	Y104.75	Z12.5	E455.3554401
G1	X104.75	Y108.2272413	Z12.5	E455.4920391
G1	X100	Y109.5	Z12.5	E455.628638
G1	X95.25	Y108.2272413	Z12.5	E455.765237
G1	X91.77275866	Y104.75	Z12.5	E455.9018359
G1	X90.5	Y100	Z12.5	E456.0384348
G1	X91.77275866	Y95.25	Z12.5	E456.1750338
G1	X95.25	Y91.77275866	Z12.5	E456.3116327
G1	X100	Y90.5	Z12.5	E456.4482317
G1	X104.75	Y91.77275866	Z12.5	E456.5848306
G1	X108.2272413	Y95.25	Z12.5	E456.7214295
G1	X110	Y100	Z12.5	E456.8622636
G1	X108.660254	Y105	Z12.5	E457.006052
G1	X105	Y108.660254	Z12.5	E457.1498403
G1	X100	Y110	Z12.5	E457.2936287
G1	X95	Y108.660254	Z12.5	E457.4374171
G1	X91.33974596	Y105	Z12.5	E457.5812054
G1	X90	Y100	Z12.5	E457.7249938
G1	X91.33974596	Y95	Z12.5	E457.8687821
G1	X95	Y91.33974596	Z12.5	E458.0125705
G1	X100	Y90	Z12.5	E458.1563588
G1	X105	Y91.33974596	Z12.5	E458.3001472
G1	X108.660254	Y95	Z12.5	E458.4439356
G1	X110.5	Y100	Z12.5	E458.591928
G1	X109.0932667	Y105.25	Z12.5	E458.7429057
G1	X105.25	Y109.0932667	Z12.5	E458.8938835
G1	X100	Y110.5	Z12.5	E459.0448613
G1	X94.75	Y109.0932667	Z12.5	E459.1958391
G1	X90.90673326	Y105.25	Z12.5	E459.3468168
G1	X89.5	Y100	Z12.5	E459.4977946
G1	X90.90673326	Y94.75	Z12.5	E459.6487724
G1	X94.75	Y90.90673326	Z12.5	E459.7997502
G1	X100	Y89.5	Z12.5	E459.9507279
G1	X105.25	Y90.90673326	Z12.5	E460.1017057
G1	X109.0932667	Y94.75	Z12.5	E460.2526835
G1	X111	Y100	Z12.5	E460.4078371
G1	X109.5262794	Y105.5	Z12.5	E460.5660043
G1	X105.5	Y109.5262794	Z12.5	E460.7241715
G1	X100	Y111	Z12.5	E460.8823387
G1	X94.5	Y109.5262794	Z12.5	E461.0405058
G1	X90.47372056	Y105.5	Z12.5	E461.198673
G1	X89	Y100	Z12.5	E461.3568402
G1	X90.47372056	Y94.5	Z12.5	E461.5150074
G1	X94.5	Y90.47372056	Z12.5	E461.6731746
G1	X100	Y89	Z12.5	E461.8313418
G1	X105.5	Y90.47372056	Z12.5	E461.989509
G1	X109.5262794	Y94.5	Z12.5	E462.1476762
G1	X111.5	Y100	Z12.5	E462.3099935
G1	X109.9592921	Y105.75	Z12.5	E462.4753501
G1	X105.75	Y109.9592921	Z12.5	E462.6407067
G1	X100	Y111.5	Z12.5	E462.8060633
G1	X94.25	Y109.9592921	Z12.5	E462.9714199
G1	X90.04070786	Y105.75	Z12.5	E463.1367765
G1	X88.5	Y100	Z12.5	E463.3021331
G1	X90.04070786	Y94.25	Z12.5	E463.4674897
G1	X94.25	Y90.04070786	Z12.5	E463.6328464
G1	X100	Y88.5	Z12.5	E463.798203
G1	X105.75	Y90.04070786	Z12.5	E463.9635596
G1	X109.9592921	Y94.25	Z12.5	E464.1289162
G1	X112	Y100	Z13	E464.2983993
G1	X110.3923048	Y106	Z13	E464.4709453
G1	X106	Y110.3923048	Z13	E464.6434914
G1	X100	Y112	Z13	E464.8160374
G1	X94	Y110.3923048	Z13	E464.9885834
G1	X89.60769515	Y106	Z13	E465.1611295
G1	X88	Y100	Z13	E465.3336755
G1	X89.60769515	Y94	Z13	E465.5062215
G1	X94	Y89.60769515	Z13	E465.6787676
G1	X100	Y88	Z13	E465.8513136
G1	X106	Y89.60769515	Z13	E466.0238596
G1	X110.3923048	Y94	Z13	E466.1964056
G1	X109	Y100	Z13	E466.3675008
G1	X107.7942286	Y104.5	Z13	E466.4969103
G1	X104.5	Y107.7942286	Z13	E466.6263198
G1	X100	Y109	Z13	E466.7557293
G1	X95.5	Y107.7942286	Z13	E466.8851389
G1	X92.20577137	Y104.5	Z13	E467.0145484
G1	X91	Y100	Z13	E467.1439579
G1	X92.20577137	Y95.5	Z13	E467.2733674
G1	X95.5	Y92.20577137	Z13	E467.402777
G1	X100	Y91	Z13	E467.5321865
G1	X104.5	Y92.20577137	Z13	E467.661596
G1	X107.7942286	Y95.5	Z13	E467.7910055
G1	X109.5	Y100	Z13	E467.9246846
G1	X108.2272413	Y104.75	Z13	E468.0612836
G1	X104.75	Y108.2272413	Z13	E468.1978825
G1	X100	Y109.5	Z13	E468.3344815
G1	X95.25	Y108.2272413	Z13	E468.4710804
G1	X91.77275866	Y104.75	Z13	E468.6076793
G1	X90.5	Y100	Z13	E468.7442783
G1	X91.77275866	Y95.25	Z13	E468.8808772
G1	X95.25	Y91.77275866	Z13	E469.0174762
G1	X100	Y90.5	Z13	E469.1540751
G1	X104.75	Y91.77275866	Z13	E469.290674
G1	X108.2272413	Y95.25	Z13	E469.427273
G1	X110	Y100	Z13	E469.5681071
G1	X108.660254	Y105	Z13	E469.7118954
G1	X105	Y108.660254	Z13	E469.8556838
G1	X100	Y110	Z13	E469.9994721
G1	X95	Y108.660254	Z13	E470.1432605
G1	X91.33974596	Y105	Z13	E470.2870489
G1	X90	Y100	Z13	E470.4308372
G1	X91.33974596	Y95	Z13	E470.5746256
G1	X95	Y91.33974596	Z13	E470.7184139
G1	X100	Y90	Z13	E470.8622023
G1	X105	Y91.33974596	Z13	E471.0059907
G1	X108.660254	Y95	Z13	E471.149779
G1	X110.5	Y100	Z13	E471.2977714
G1	X109.0932667	Y105.25	Z13	E471.4487492
G1	X105.25	Y109.0932667	Z13	E471.599727
G1	X100	Y110.5	Z13	E471.7507047
G1	X94.75	Y109.0932667	Z13	E471.9016825
G1	X90.90673326	Y105.25	Z13	E472.0526603
G1	X89.5	Y100	Z13	E472.2036381
G1	X90.90673326	Y94.75	Z13	E472.3546158
G1	X94.75	Y90.90673326	Z13	E472.5055936
G1	X100	Y89.5	Z13	E472.6565714
G1	X105.25	Y90.90673326	Z13	E472.8075492
G1	X109.0932667	Y94.75	Z13	E472.9585269
G1	X111	Y100	Z13	E473.1136805
