; generated by Slic3r 1.0.0RC3 on 2014-05-12 at 21:43:40

; layer_height = 0.3
; perimeters = 3
; top_solid_layers = 3
; bottom_solid_layers = 3
; fill_density = 0.2
; perimeter_speed = 30
; infill_speed = 60
; travel_speed = 130
; nozzle_diameter = 0.4
; filament_diameter = 1.75
; extrusion_multiplier = 1
; perimeters extrusion width = 0.40mm
; infill extrusion width = 0.42mm
; solid infill extrusion width = 0.42mm
; top infill extrusion width = 0.42mm
; first layer extrusion width = 0.70mm

G21 ; set units to millimeters
M107
M104 S200 ; set temperature
G28 ; home all axes
G1 Z0 F5000 ; lift nozzle
M109 S200 ; wait for temperature to be reached
G90 ; use absolute coordinates
G92 E0
M82 ; use absolute distances for extrusion
G1 F1800.000 E-1.00000
G92 E0
G1 Z0.350 F7800.000
G1 X36.560 Y36.216 F7800.000
G1 E1.00000 F1800.000
G1 X37.110 Y35.676 E1.07129 F540.000
G1 X37.710 Y35.186 E1.14294
G1 X39.740 Y33.716 E1.37475
G1 X40.370 Y33.306 E1.44428
G1 X41.040 Y32.966 E1.51377
G1 X43.330 Y31.946 E1.74563
G1 X44.040 Y31.666 E1.81622
G1 X44.780 Y31.476 E1.88689
G1 X47.230 Y30.956 E2.11854
G1 X47.980 Y30.836 E2.18879
G1 X48.740 Y30.796 E2.25918
G1 X51.250 Y30.796 E2.49133
G1 X52.010 Y30.836 E2.56172
G1 X52.760 Y30.956 E2.63197
G1 X55.210 Y31.476 E2.86362
G1 X55.950 Y31.666 E2.93429
G1 X56.660 Y31.946 E3.00488
G1 X58.950 Y32.966 E3.23674
G1 X59.620 Y33.306 E3.30623
G1 X60.250 Y33.716 E3.37575
G1 X62.280 Y35.186 E3.60757
G1 X62.880 Y35.676 E3.67922
G1 X63.430 Y36.216 E3.75051
G1 X65.110 Y38.086 E3.98301
G1 X65.580 Y38.666 E4.05206
G1 X65.990 Y39.296 E4.12158
G1 X67.250 Y41.466 E4.35367
G1 X67.600 Y42.156 E4.42523
G1 X67.880 Y42.876 E4.49668
G1 X68.650 Y45.256 E4.72804
G1 X68.840 Y45.976 E4.79692
G1 X68.960 Y46.716 E4.86625
G1 X69.230 Y49.216 E5.09883
G1 X69.270 Y49.996 E5.17106
G1 X69.230 Y50.776 E5.24330
G1 X68.960 Y53.266 E5.47495
G1 X68.840 Y53.996 E5.54338
G1 X68.650 Y54.716 E5.61225
G1 X67.880 Y57.106 E5.84449
G1 X67.600 Y57.836 E5.91681
G1 X67.250 Y58.526 E5.98837
G1 X65.990 Y60.696 E6.22045
G1 X65.580 Y61.326 E6.28998
G1 X65.110 Y61.906 E6.35902
G1 X63.430 Y63.776 E6.59153
G1 X62.880 Y64.316 E6.66282
G1 X62.280 Y64.806 E6.73447
G1 X60.250 Y66.276 E6.96628
G1 X59.620 Y66.686 E7.03580
G1 X58.950 Y67.026 E7.10530
G1 X56.660 Y68.046 E7.33716
G1 X55.950 Y68.326 E7.40775
G1 X55.210 Y68.516 E7.47841
G1 X52.760 Y69.036 E7.71007
G1 X52.010 Y69.156 E7.78032
G1 X51.250 Y69.196 E7.85071
G1 X48.740 Y69.196 E8.08286
G1 X47.980 Y69.156 E8.15325
G1 X47.230 Y69.036 E8.22350
G1 X44.780 Y68.516 E8.45515
G1 X44.050 Y68.326 E8.52492
G1 X43.340 Y68.056 E8.59517
G1 X41.040 Y67.036 E8.82788
G1 X40.360 Y66.686 E8.89862
G1 X39.710 Y66.266 E8.97020
G1 X37.690 Y64.796 E9.20126
G1 X37.100 Y64.316 E9.27161
G1 X36.560 Y63.776 E9.34225
G1 X34.880 Y61.906 E9.57475
G1 X34.410 Y61.326 E9.64380
G1 X34.000 Y60.696 E9.71332
G1 X32.740 Y58.526 E9.94541
G1 X32.390 Y57.836 E10.01697
G1 X32.110 Y57.116 E10.08842
G1 X31.330 Y54.706 E10.32270
G1 X31.130 Y53.956 E10.39450
G1 X31.020 Y53.196 E10.46552
G1 X30.770 Y50.726 E10.69514
G1 X30.730 Y49.986 E10.76369
G1 X30.770 Y49.246 E10.83223
G1 X31.030 Y46.746 E11.06470
G1 X31.150 Y45.996 E11.13495
G1 X31.340 Y45.256 E11.20562
G1 X32.110 Y42.876 E11.43698
G1 X32.390 Y42.156 E11.50843
G1 X32.740 Y41.466 E11.57999
G1 X34.000 Y39.296 E11.81208
G1 X34.410 Y38.666 E11.88160
G1 X34.880 Y38.086 E11.95065
G1 X36.496 Y36.287 E12.17433
G1 X37.030 Y36.646 F7800.000
G1 X37.530 Y36.146 E12.23973 F540.000
G1 X38.080 Y35.706 E12.30488
G1 X40.110 Y34.236 E12.53669
G1 X40.690 Y33.856 E12.60083
G1 X41.300 Y33.546 E12.66411
G1 X43.590 Y32.526 E12.89598
G1 X44.240 Y32.276 E12.96039
G1 X44.910 Y32.096 E13.02456
G1 X47.360 Y31.576 E13.25621
G1 X48.050 Y31.466 E13.32083
G1 X48.740 Y31.426 E13.38476
G1 X51.250 Y31.426 E13.61691
G1 X51.940 Y31.466 E13.68084
G1 X52.630 Y31.576 E13.74546
G1 X55.080 Y32.096 E13.97711
G1 X55.750 Y32.276 E14.04128
G1 X56.400 Y32.526 E14.10569
G1 X58.690 Y33.546 E14.33756
G1 X59.300 Y33.856 E14.40084
G1 X59.880 Y34.236 E14.46498
G1 X61.910 Y35.706 E14.69679
G1 X62.460 Y36.146 E14.76194
G1 X62.960 Y36.646 E14.82734
G1 X64.640 Y38.516 E15.05984
G1 X65.070 Y39.046 E15.12297
G1 X65.440 Y39.616 E15.18582
G1 X66.700 Y41.786 E15.41791
G1 X67.020 Y42.416 E15.48326
G1 X67.270 Y43.076 E15.54854
G1 X68.040 Y45.456 E15.77990
G1 X68.220 Y46.116 E15.84317
G1 X68.330 Y46.786 E15.90597
G1 X68.600 Y49.286 E16.13854
G1 X68.640 Y49.996 E16.20432
G1 X68.600 Y50.716 E16.27101
G1 X68.330 Y53.206 E16.50267
G1 X68.220 Y53.866 E16.56455
G1 X68.050 Y54.516 E16.62669
G1 X67.280 Y56.906 E16.85894
G1 X67.020 Y57.576 E16.92541
G1 X66.700 Y58.206 E16.99076
G1 X65.440 Y60.376 E17.22285
G1 X65.070 Y60.946 E17.28570
G1 X64.640 Y61.476 E17.34883
G1 X62.960 Y63.346 E17.58133
G1 X62.460 Y63.846 E17.64673
G1 X61.910 Y64.286 E17.71188
G1 X59.880 Y65.756 E17.94369
G1 X59.300 Y66.136 E18.00783
G1 X58.690 Y66.446 E18.07111
G1 X56.400 Y67.466 E18.30298
G1 X55.750 Y67.716 E18.36739
G1 X55.080 Y67.896 E18.43156
G1 X52.630 Y68.416 E18.66321
G1 X51.940 Y68.526 E18.72783
G1 X51.250 Y68.566 E18.79176
G1 X48.740 Y68.566 E19.02391
G1 X48.050 Y68.526 E19.08784
G1 X47.360 Y68.416 E19.15246
G1 X44.910 Y67.896 E19.38411
G1 X44.250 Y67.716 E19.44738
G1 X43.600 Y67.476 E19.51147
G1 X41.300 Y66.456 E19.74418
G1 X40.670 Y66.136 E19.80954
G1 X40.090 Y65.756 E19.87367
G1 X38.070 Y64.286 E20.10474
G1 X37.530 Y63.846 E20.16916
G1 X37.030 Y63.346 E20.23456
G1 X35.350 Y61.476 E20.46707
G1 X34.920 Y60.946 E20.53019
G1 X34.550 Y60.376 E20.59305
G1 X33.290 Y58.206 E20.82513
G1 X32.970 Y57.576 E20.89049
G1 X32.720 Y56.916 E20.95576
G1 X31.940 Y54.506 E21.19005
G1 X31.760 Y53.826 E21.25511
G1 X31.650 Y53.136 E21.31974
G1 X31.400 Y50.666 E21.54936
G1 X31.360 Y49.986 E21.61236
G1 X31.400 Y49.306 E21.67536
G1 X31.660 Y46.806 E21.90783
G1 X31.770 Y46.126 E21.97155
G1 X31.950 Y45.456 E22.03571
G1 X32.720 Y43.076 E22.26707
G1 X32.970 Y42.416 E22.33235
G1 X33.290 Y41.786 E22.39771
G1 X34.550 Y39.616 E22.62979
G1 X34.920 Y39.046 E22.69265
G1 X35.350 Y38.516 E22.75577
G1 X36.966 Y36.717 E22.97946
G1 F1800.000 E21.97946
G92 E0
G1 X43.073 Y42.307 F7800.000
G1 E1.00000 F1800.000
G1 X44.824 Y41.035 E1.20016 F378.000
G1 X46.801 Y40.155 E1.40033
G1 X48.918 Y39.705 E1.60049
G1 X51.082 Y39.705 E1.80065
G1 X53.199 Y40.155 E2.00082
G1 X55.176 Y41.035 E2.20098
G1 X56.927 Y42.307 E2.40115
G1 X58.375 Y43.915 E2.60131
G1 X59.457 Y45.789 E2.80147
G1 X60.126 Y47.848 E3.00164
G1 X60.352 Y50.000 E3.20180
G1 X60.126 Y52.152 E3.40196
G1 X59.457 Y54.211 E3.60213
G1 X58.375 Y56.085 E3.80229
G1 X56.927 Y57.693 E4.00246
G1 X55.176 Y58.965 E4.20262
G1 X53.199 Y59.845 E4.40278
G1 X51.082 Y60.295 E4.60294
G1 X48.918 Y60.295 E4.80311
G1 X46.801 Y59.845 E5.00327
G1 X44.824 Y58.965 E5.20344
G1 X43.073 Y57.693 E5.40360
G1 X41.625 Y56.085 E5.60376
G1 X40.543 Y54.211 E5.80393
G1 X39.874 Y52.152 E6.00409
G1 X39.648 Y50.000 E6.20425
G1 X39.874 Y47.848 E6.40442
G1 X40.543 Y45.789 E6.60458
G1 X41.625 Y43.915 E6.80474
G1 X43.009 Y42.378 E6.99609
G1 X42.963 Y41.681 F7800.000
G1 X42.206 Y41.344 F7800.000
G1 X44.176 Y39.912 E7.22132 F378.000
G1 X46.401 Y38.922 E7.44654
G1 X48.782 Y38.416 E7.67177
G1 X51.218 Y38.416 E7.89699
G1 X53.599 Y38.922 E8.12222
G1 X55.824 Y39.912 E8.34745
G1 X57.794 Y41.344 E8.57267
G1 X59.423 Y43.153 E8.79790
G1 X60.641 Y45.262 E9.02312
G1 X61.394 Y47.578 E9.24835
G1 X61.648 Y50.000 E9.47357
G1 X61.394 Y52.422 E9.69880
G1 X60.641 Y54.738 E9.92403
G1 X59.423 Y56.847 E10.14925
G1 X57.794 Y58.656 E10.37448
G1 X55.824 Y60.088 E10.59970
G1 X53.599 Y61.078 E10.82493
G1 X51.218 Y61.584 E11.05015
G1 X48.782 Y61.584 E11.27538
G1 X46.401 Y61.078 E11.50060
G1 X44.176 Y60.088 E11.72583
G1 X42.206 Y58.656 E11.95106
G1 X40.577 Y56.847 E12.17628
G1 X39.359 Y54.738 E12.40151
G1 X38.606 Y52.422 E12.62674
G1 X38.352 Y50.000 E12.85196
G1 X38.606 Y47.578 E13.07718
G1 X39.359 Y45.262 E13.30241
G1 X40.577 Y43.153 E13.52764
G1 X42.142 Y41.415 E13.74404
G1 X42.803 Y41.561 F7800.000
G1 X42.654 Y41.572 F7800.000
G1 X42.936 Y41.853 E13.76179 F360.000
G1 X42.701 Y42.051 E13.77547 F360.000
G1 X42.425 Y41.775 E13.79287 F360.000
G1 X42.217 Y42.001 E13.80651 F360.000
G1 X42.496 Y42.279 E13.82406 F360.000
G1 X42.291 Y42.507 E13.83771 F360.000
G1 X42.012 Y42.228 E13.85526 F360.000
G1 X41.807 Y42.456 E13.86891 F360.000
G1 X42.085 Y42.735 E13.88646 F360.000
G1 X41.880 Y42.963 E13.90011 F360.000
G1 X41.602 Y42.684 E13.91766 F360.000
G1 X41.397 Y42.912 E13.93131 F360.000
G1 X41.675 Y43.190 E13.94886 F360.000
G1 X41.470 Y43.418 E13.96251 F360.000
G1 X41.192 Y43.140 E13.98006 F360.000
G1 X40.986 Y43.367 E13.99371 F360.000
G1 X41.265 Y43.646 E14.01126 F360.000
G1 X41.106 Y43.919 E14.02536 F360.000
G1 X40.818 Y43.631 E14.04350 F360.000
G1 X40.659 Y43.906 E14.05761 F360.000
G1 X40.947 Y44.194 E14.07575 F360.000
G1 X40.789 Y44.468 E14.08987 F360.000
G1 X40.501 Y44.180 E14.10801 F360.000
G1 X40.342 Y44.455 E14.12212 F360.000
G1 X40.630 Y44.743 E14.14026 F360.000
G1 X40.472 Y45.017 E14.15438 F360.000
G1 X40.184 Y44.729 E14.17252 F360.000
G1 X40.025 Y45.004 E14.18663 F360.000
G1 X40.313 Y45.292 E14.20477 F360.000
G1 X40.155 Y45.566 E14.21889 F360.000
G1 X39.867 Y45.278 E14.23703 F360.000
G1 X39.729 Y45.573 E14.25153 F360.000
G1 X40.041 Y45.885 E14.27119 F360.000
G1 X39.935 Y46.212 E14.28649 F360.000
G1 X39.623 Y45.900 E14.30616 F360.000
G1 X39.517 Y46.226 E14.32146 F360.000
G1 X39.829 Y46.538 E14.34113 F360.000
G1 X39.723 Y46.865 E14.35643 F360.000
G1 X39.410 Y46.553 E14.37609 F360.000
G1 X39.304 Y46.880 E14.39140 F360.000
G1 X39.616 Y47.192 E14.41106 F360.000
G1 X39.510 Y47.519 E14.42636 F360.000
G1 X39.198 Y47.206 E14.44603 F360.000
G1 X39.092 Y47.533 E14.46133 F360.000
G1 X39.422 Y47.864 E14.48214 F360.000
G1 X39.381 Y48.255 E14.49969 F360.000
G1 X39.023 Y47.897 E14.52224 F360.000
G1 X38.982 Y48.289 E14.53978 F360.000
G1 X39.340 Y48.647 E14.56233 F360.000
G1 X39.299 Y49.039 E14.57987 F360.000
G1 X38.941 Y48.681 E14.60242 F360.000
G1 X38.900 Y49.072 E14.61996 F360.000
G1 X39.258 Y49.430 E14.64251 F360.000
G1 X39.216 Y49.822 E14.66006 F360.000
G1 X38.859 Y49.464 E14.68261 F360.000
G1 X38.817 Y49.856 E14.70015 F360.000
G1 X39.226 Y50.264 E14.72586 F360.000
G1 X38.834 Y50.306 E14.74339 F360.000
G1 X39.276 Y50.748 E14.77123 F360.000
G1 X38.885 Y50.789 E14.78875 F360.000
G1 X39.327 Y51.231 E14.81660 F360.000
G1 X38.936 Y51.273 E14.83412 F360.000
G1 X39.378 Y51.715 E14.86197 F360.000
G1 X38.987 Y51.757 E14.87949 F360.000
G1 X39.429 Y52.199 E14.90734 F360.000
G1 X39.038 Y52.241 E14.92486 F360.000
G1 X39.622 Y52.825 E14.96167 F360.000
G1 X39.218 Y52.853 E14.97973 F360.000
G1 X39.830 Y53.466 E15.01833 F360.000
G1 X39.426 Y53.495 E15.03638 F360.000
G1 X40.039 Y54.107 E15.07498 F360.000
G1 X39.634 Y54.136 E15.09304 F360.000
G1 X40.459 Y54.960 E15.14498 F360.000
G1 X39.976 Y54.910 E15.16663 F360.000
G1 X41.050 Y55.985 E15.23433 F360.000
G1 X40.567 Y55.934 E15.25598 F360.000
G1 X44.142 Y59.509 E15.48119 F360.000
G1 X43.947 Y58.881 F7800.000
G1 X45.054 Y59.988 E15.55092 F360.000
G1 X45.058 Y59.559 E15.57003 F360.000
G1 X45.834 Y60.336 E15.61892 F360.000
G1 X45.838 Y59.907 E15.63803 F360.000
G1 X46.592 Y60.661 E15.68554 F360.000
G1 X46.618 Y60.254 E15.70370 F360.000
G1 X47.142 Y60.778 E15.73669 F360.000
G1 X47.181 Y60.384 E15.75432 F360.000
G1 X47.692 Y60.895 E15.78650 F360.000
G1 X47.731 Y60.501 E15.80413 F360.000
G1 X48.241 Y61.011 E15.83631 F360.000
G1 X48.280 Y60.618 E15.85394 F360.000
G1 X48.791 Y61.128 E15.88612 F360.000
G1 X48.830 Y60.734 E15.90375 F360.000
G1 X49.232 Y61.136 E15.92908 F360.000
G1 X49.272 Y60.743 E15.94670 F360.000
G1 X49.665 Y61.136 E15.97148 F360.000
G1 X49.705 Y60.743 E15.98909 F360.000
G1 X50.098 Y61.136 E16.01388 F360.000
G1 X50.137 Y60.743 E16.03149 F360.000
G1 X50.531 Y61.136 E16.05627 F360.000
G1 X50.570 Y60.743 E16.07389 F360.000
G1 X50.964 Y61.136 E16.09867 F360.000
G1 X51.357 Y61.097 E16.11627 F360.000
G1 X51.003 Y60.743 E16.13856 F360.000
G1 X51.382 Y60.689 E16.15561 F360.000
G1 X51.714 Y61.021 E16.17651 F360.000
G1 X52.071 Y60.945 E16.19276 F360.000
G1 X51.739 Y60.613 E16.21366 F360.000
G1 X52.096 Y60.537 E16.22992 F360.000
G1 X52.428 Y60.869 E16.25081 F360.000
G1 X52.785 Y60.793 E16.26707 F360.000
G1 X52.453 Y60.462 E16.28796 F360.000
G1 X52.810 Y60.386 E16.30422 F360.000
G1 X53.142 Y60.717 E16.32512 F360.000
G1 X53.493 Y60.635 E16.34116 F360.000
G1 X53.167 Y60.310 E16.36167 F360.000
G1 X53.494 Y60.204 E16.37698 F360.000
G1 X53.792 Y60.502 E16.39575 F360.000
G1 X54.092 Y60.369 E16.41035 F360.000
G1 X53.794 Y60.071 E16.42912 F360.000
G1 X54.093 Y59.937 E16.44372 F360.000
G1 X54.391 Y60.235 E16.46250 F360.000
G1 X54.691 Y60.102 E16.47710 F360.000
G1 X54.393 Y59.804 E16.49587 F360.000
G1 X54.692 Y59.671 E16.51047 F360.000
G1 X54.990 Y59.969 E16.52924 F360.000
G1 X55.290 Y59.835 E16.54385 F360.000
G1 X54.992 Y59.537 E16.56262 F360.000
G1 X55.291 Y59.404 E16.57722 F360.000
G1 X55.589 Y59.702 E16.59599 F360.000
G1 X55.842 Y59.521 E16.60981 F360.000
G1 X55.560 Y59.240 E16.62755 F360.000
G1 X55.811 Y59.057 E16.64136 F360.000
G1 X56.092 Y59.339 E16.65910 F360.000
G1 X56.343 Y59.157 E16.67290 F360.000
G1 X56.061 Y58.875 E16.69064 F360.000
G1 X56.312 Y58.693 E16.70445 F360.000
G1 X56.594 Y58.975 E16.72219 F360.000
G1 X56.845 Y58.793 E16.73599 F360.000
G1 X56.563 Y58.511 E16.75373 F360.000
G1 X56.814 Y58.329 E16.76754 F360.000
G1 X57.095 Y58.610 E16.78528 F360.000
G1 X57.346 Y58.428 E16.79908 F360.000
G1 X57.064 Y58.147 E16.81682 F360.000
G1 X57.299 Y57.949 E16.83051 F360.000
G1 X57.575 Y58.225 E16.84790 F360.000
G1 X57.783 Y57.999 E16.86155 F360.000
G1 X57.504 Y57.721 E16.87910 F360.000
G1 X57.709 Y57.493 E16.89275 F360.000
G1 X57.988 Y57.772 E16.91030 F360.000
G1 X58.193 Y57.544 E16.92395 F360.000
G1 X57.915 Y57.265 E16.94150 F360.000
G1 X58.120 Y57.037 E16.95515 F360.000
G1 X58.398 Y57.316 E16.97270 F360.000
G1 X58.603 Y57.088 E16.98635 F360.000
G1 X58.325 Y56.810 E17.00390 F360.000
G1 X58.530 Y56.582 E17.01755 F360.000
G1 X58.808 Y56.860 E17.03510 F360.000
G1 X59.014 Y56.633 E17.04875 F360.000
G1 X58.735 Y56.354 E17.06629 F360.000
G1 X58.894 Y56.081 E17.08039 F360.000
G1 X59.182 Y56.369 E17.09853 F360.000
G1 X59.341 Y56.094 E17.11265 F360.000
G1 X59.053 Y55.806 E17.13079 F360.000
G1 X59.211 Y55.532 E17.14490 F360.000
G1 X59.499 Y55.820 E17.16305 F360.000
G1 X59.658 Y55.545 E17.17716 F360.000
G1 X59.370 Y55.257 E17.19530 F360.000
G1 X59.528 Y54.983 E17.20941 F360.000
G1 X59.816 Y55.271 E17.22756 F360.000
G1 X59.975 Y54.996 E17.24167 F360.000
G1 X59.687 Y54.708 E17.25981 F360.000
G1 X59.845 Y54.434 E17.27392 F360.000
G1 X60.133 Y54.722 E17.29206 F360.000
G1 X60.271 Y54.427 E17.30656 F360.000
G1 X59.959 Y54.115 E17.32623 F360.000
G1 X60.065 Y53.788 E17.34153 F360.000
G1 X60.377 Y54.100 E17.36120 F360.000
G1 X60.483 Y53.774 E17.37650 F360.000
G1 X60.171 Y53.462 E17.39616 F360.000
G1 X60.277 Y53.135 E17.41146 F360.000
G1 X60.590 Y53.447 E17.43113 F360.000
G1 X60.696 Y53.120 E17.44643 F360.000
G1 X60.383 Y52.808 E17.46610 F360.000
G1 X60.490 Y52.481 E17.48140 F360.000
G1 X60.802 Y52.794 E17.50107 F360.000
G1 X60.908 Y52.467 E17.51637 F360.000
G1 X60.578 Y52.136 E17.53718 F360.000
G1 X60.619 Y51.745 E17.55472 F360.000
G1 X60.977 Y52.103 E17.57727 F360.000
G1 X61.018 Y51.711 E17.59481 F360.000
G1 X60.660 Y51.353 E17.61736 F360.000
G1 X60.701 Y50.961 E17.63491 F360.000
G1 X61.059 Y51.319 E17.65746 F360.000
G1 X61.100 Y50.928 E17.67500 F360.000
G1 X60.742 Y50.570 E17.69755 F360.000
G1 X60.784 Y50.178 E17.71509 F360.000
G1 X61.141 Y50.536 E17.73764 F360.000
G1 X61.183 Y50.144 E17.75518 F360.000
G1 X60.774 Y49.736 E17.78090 F360.000
